!!!!SEGMENT: pl-wtm--r-71-n--001_noskowski-zygmunt--powrot-suita-krakowiakow-allegro-moderato.krn
!!!cenid: 18xx:2111
!!!COM: Noskowski, Zygmunt
!!!COM-rismID: pe106604
!!!CDT: 1846/05/02-1909/07/23
!!!CNT: Polish
!!!OPR: Powrót - Suita krakowiaków
!!!OTL: Allegro moderato
!!!OMV: 001
!!!PDT: 1894
!!!AGN: Secular
!!!SMS-siglum: PL-Wtm
!!!SMS-shelfmark: R 71/N
!!!SMS-shelfwork: 001-001 M
!!!SMS-variant:
!!!SMS-altvar:
!!!NIFC-rismSourceID: 1001096000
!!!NIFC-islandoraID:
!!!URL-pdf-islandora:
!!!URL-scan:
!!!ONB-nifc: UWAGA: Numeracja krakowiaków zgodna z kolejnością źródłową (I-VIII)
!!!OMD: Allegro moderato
!!!AIN: 1 alto 3 empty 1 soprn 1 tenor
!!!key:
**kern	**kern	**dynam	**kern	**kern	**dynam	**kern	**dynam	**text	**mod-text	**kern	**dynam	**text	**mod-text	**kern	**dynam	**text	**mod-text	**kern	**dynam	**text	**mod-text
*group1	*group1	*	*group1	*group1	*	*	*	*	*	*	*	*	*	*	*	*	*	*	*	*	*
*part6	*part6	*part6	*part5	*part5	*part5	*part4	*part4	*part4	*part4	*part3	*part3	*part3	*part3	*part2	*part2	*part2	*part2	*part1	*part1	*part1	*part1
*staff8	*staff7	*	*staff6	*staff5	*	*staff4	*	*staff4	*staff4	*staff3	*	*staff3	*staff3	*staff2	*	*staff2	*staff2	*staff1	*	*staff1	*staff1
*Iempty	*Iempty	*	*Iempty	*Iempty	*	*Iempty	*	*	*	*Itenor	*	*	*	*Ialto	*	*	*	*Isoprn	*	*	*
*I"2do	*I"2do	*	*I"1mo	*I"1mo	*	*I"Bas	*	*	*	*I"Tenor	*	*	*	*I"Alt	*	*	*	*I"Sopran	*	*	*
*mI"Pianoforte II	*mI"Pianoforte II	*	*mI"Pianoforte I	*mI"Pianoforte I	*	*mI"Basso	*	*	*	*mI"Tenore	*	*	*	*mI"Alto	*	*	*	*mI"Soprano	*	*	*
*I'pf 2	*I'pf 2	*	*I'pf 1	*I'pf 1	*	*I'B	*	*	*	*I'T	*	*	*	*I'A	*	*	*	*I'S	*	*	*
*	*	*	*	*	*	*	*	*	*	*ITrd7c12	*	*	*	*	*	*	*	*	*	*	*
*clefF4	*clefF4	*	*clefG2	*clefG2	*	*clefF4	*	*	*	*clefG2	*	*	*	*clefG2	*	*	*	*clefG2	*	*	*
*k[f#c#g#d#]	*k[f#c#g#d#]	*	*k[f#c#g#d#]	*k[f#c#g#d#]	*	*k[f#c#g#d#]	*	*	*	*k[f#c#g#d#]	*	*	*	*k[f#c#g#d#]	*	*	*	*k[f#c#g#d#]	*	*	*
*E:	*E:	*	*E:	*E:	*	*E:	*	*	*	*E:	*	*	*	*E:	*	*	*	*E:	*	*	*
*M2/4	*M2/4	*	*M2/4	*M2/4	*	*M2/4	*	*	*	*M2/4	*	*	*	*M2/4	*	*	*	*M2/4	*	*	*
=1	=1	=1	=1	=1	=1	=1	=1	=1	=1	=1	=1	=1	=1	=1	=1	=1	=1	=1	=1	=1	=1
*	*	*	*	*8va	*	*	*	*	*	*	*	*	*	*	*	*	*	*	*	*	*
!	!LO:TX:a:i:t=Allegro moderato:mod=	!	!	!LO:TX:a:i:t=Allegro moderato:mod=	!	!	!	!	!	!	!	!	!	!	!	!	!	!	!	!	!
8EEL 8BBB 8EEE/	8eL 8B 8G# 8E\	sfz	8gg# 8ee 8b 8g#\	8eeee 8bbb 8ggg# 8eee\	sfz	2r	.	.	.	2r	.	.	.	2r	.	.	.	2r	.	.	.
*	*	*	*	*X8va	*	*	*	*	*	*	*	*	*	*	*	*	*	*	*	*	*
8BB 8EE'/	8B 8G# 8E'\	f	8r	8r	.	.	.	.	.	.	.	.	.	.	.	.	.	.	.	.	.
8BB 8EE'/	8B 8G# 8E'\	.	4r	4r	.	.	.	.	.	.	.	.	.	.	.	.	.	.	.	.	.
8BBJ 8EE'/	8BJ 8G# 8E'\	.	.	.	.	.	.	.	.	.	.	.	.	.	.	.	.	.	.	.	.
=2	=2	=2	=2	=2	=2	=2	=2	=2	=2	=2	=2	=2	=2	=2	=2	=2	=2	=2	=2	=2	=2
*rep	*rep	*	*rep	*rep	*	*	*	*	*	*	*	*	*	*	*	*	*	*	*	*	*
*	*	*	*	*8va	*	*	*	*	*	*	*	*	*	*	*	*	*	*	*	*	*
8EEL 8BBB 8EEE/	8eL 8B 8G# 8E\	.	8gg# 8ee 8b 8g#\	8eeee 8bbb 8ggg# 8eee\	.	2r	.	.	.	2r	.	.	.	2r	.	.	.	2r	.	.	.
*	*	*	*	*X8va	*	*	*	*	*	*	*	*	*	*	*	*	*	*	*	*	*
8BB 8EE'/	8B 8G# 8E'\	.	8r	8r	.	.	.	.	.	.	.	.	.	.	.	.	.	.	.	.	.
8BB 8EE'/	8B 8G# 8E'\	.	4r	4r	.	.	.	.	.	.	.	.	.	.	.	.	.	.	.	.	.
8BBJ 8EE'/	8BJ 8G# 8E'\	.	.	.	.	.	.	.	.	.	.	.	.	.	.	.	.	.	.	.	.
*Xrep	*Xrep	*	*Xrep	*Xrep	*	*	*	*	*	*	*	*	*	*	*	*	*	*	*	*	*
=3	=3	=3	=3	=3	=3	=3	=3	=3	=3	=3	=3	=3	=3	=3	=3	=3	=3	=3	=3	=3	=3
*	*	*	*	*8va	*	*	*	*	*	*	*	*	*	*	*	*	*	*	*	*	*
8BBL 8EE'/	8BL 8G# 8E'\	.	4ee 4b 4g# 4e/	4bbb 4ggg# 4eee 4bb\	f	2r	.	.	.	2r	.	.	.	2r	.	.	.	2r	.	.	.
8BB 8EE'/	8B 8G# 8E'\	.	.	.	.	.	.	.	.	.	.	.	.	.	.	.	.	.	.	.	.
8BB 8EE'/	8B 8G# 8E'\	.	8r	8r	.	.	.	.	.	.	.	.	.	.	.	.	.	.	.	.	.
8BBJ 8EE'/	8BJ 8G# 8E'\	.	(>16aa\LL	(>16aaa\LL	.	.	.	.	.	.	.	.	.	.	.	.	.	.	.	.	.
.	.	.	16gg#\JJ	16ggg#\JJ	.	.	.	.	.	.	.	.	.	.	.	.	.	.	.	.	.
=4	=4	=4	=4	=4	=4	=4	=4	=4	=4	=4	=4	=4	=4	=4	=4	=4	=4	=4	=4	=4	=4
8BBL 8EE'/	8d#L 8A 8F#'\	.	8ff#\)	8fff#\)	.	2r	.	.	.	2r	.	.	.	2r	.	.	.	2r	.	.	.
8BB 8EE^^>/	8d# 8A 8F#^^>\	.	4ccc#^^>\	4cccc#^^>\	.	.	.	.	.	.	.	.	.	.	.	.	.	.	.	.	.
8BB 8EE'/	8c# 8A 8E'\	.	.	.	.	.	.	.	.	.	.	.	.	.	.	.	.	.	.	.	.
8BBJ 8EE'/	8d#J 8A 8F#'\	.	(>16bb\LL	(>16bbb\LL	.	.	.	.	.	.	.	.	.	.	.	.	.	.	.	.	.
.	.	.	16aa\JJ	16aaa\JJ	.	.	.	.	.	.	.	.	.	.	.	.	.	.	.	.	.
=5	=5	=5	=5	=5	=5	=5	=5	=5	=5	=5	=5	=5	=5	=5	=5	=5	=5	=5	=5	=5	=5
8BBL 8EE'/	8eL 8B 8G#'\	.	16gg#\LL	16ggg#\LL	.	2r	.	.	.	2r	.	.	.	2r	.	.	.	2r	.	.	.
.	.	.	16ff#\	16fff#\	.	.	.	.	.	.	.	.	.	.	.	.	.	.	.	.	.
8BB 8EE'/	8BJ 8G# 8E'\	.	16ee\	16eee\	.	.	.	.	.	.	.	.	.	.	.	.	.	.	.	.	.
.	.	.	16ff#\JJ	16fff#\JJ	.	.	.	.	.	.	.	.	.	.	.	.	.	.	.	.	.
8BB 8EE'/	8BL 8G# 8E'\	.	8gg#\L)	8ggg#\L)	.	.	.	.	.	.	.	.	.	.	.	.	.	.	.	.	.
8BBJ 8EE'/	8BJ 8G# 8E'\	.	8aa'\J	8aaa'\J	.	.	.	.	.	.	.	.	.	.	.	.	.	.	.	.	.
!!LO:LB:g=original
=6	=6	=6	=6	=6	=6	=6	=6	=6	=6	=6	=6	=6	=6	=6	=6	=6	=6	=6	=6	=6	=6
!	!LO:MO:mod=!LO&colon;TX&colon;b&colon;i&colon;t=sempre staccato	!	!	!	!	!	!	!	!	!	!	!	!	!	!	!	!	!	!	!	!
!	!null	!	!	!	!	!	!	!	!	!	!	!	!	!	!	!	!	!	!	!	!
8BBL 8EE/	8d#L 8A 8F#\	.	8ff#\	8fff#\	.	2r	.	.	.	2r	.	.	.	2r	.	.	.	2r	.	.	.
!	!LO:MO:mod=!null:null	!	!	!	!	!	!	!	!	!	!	!	!	!	!	!	!	!	!	!	!
!	!LO:TX:b:i:t=sempre staccato	!	!	!	!	!	!	!	!	!	!	!	!	!	!	!	!	!	!	!	!
8BB 8EE^^>/	8d# 8A 8F#^^>\	.	4ccc#^^>\	4cccc#^^>\	.	.	.	.	.	.	.	.	.	.	.	.	.	.	.	.	.
8BB 8EE/	8c# 8A 8E\	.	.	.	.	.	.	.	.	.	.	.	.	.	.	.	.	.	.	.	.
8BBJ 8EE/	8d#J 8A 8F#\	.	(>16bb\LL	(>16bbb\LL	.	.	.	.	.	.	.	.	.	.	.	.	.	.	.	.	.
.	.	.	16aa\JJ	16aaa\JJ	.	.	.	.	.	.	.	.	.	.	.	.	.	.	.	.	.
=7	=7	=7	=7	=7	=7	=7	=7	=7	=7	=7	=7	=7	=7	=7	=7	=7	=7	=7	=7	=7	=7
8BBL 8EE/	8eL 8B 8G#\	.	16gg#\LL	16ggg#\LL	.	2r	.	.	.	2r	.	.	.	2r	.	.	.	2r	.	.	.
.	.	.	16ff#\	16fff#\	.	.	.	.	.	.	.	.	.	.	.	.	.	.	.	.	.
8E 8EE/	8g# 8B 8G#\	.	16gg#\	16ggg#\	.	.	.	.	.	.	.	.	.	.	.	.	.	.	.	.	.
.	.	.	16aa#X\JJ)	16aaa#X\JJ)	.	.	.	.	.	.	.	.	.	.	.	.	.	.	.	.	.
8D# 8DD#/	8f# 8B 8F#\	.	8bb'\L	8bbb'\L	.	.	.	.	.	.	.	.	.	.	.	.	.	.	.	.	.
8C#J 8CC#/	8eJ 8A#X 8F#\	.	8ccc#'\J	8cccc#'\J	.	.	.	.	.	.	.	.	.	.	.	.	.	.	.	.	.
=8	=8	=8	=8	=8	=8	=8	=8	=8	=8	=8	=8	=8	=8	=8	=8	=8	=8	=8	=8	=8	=8
8BBL 8BBB/	8d#L 8B 8F#\	.	8ddd#'\L	8dddd#'\L	.	2r	.	.	.	2r	.	.	.	2r	.	.	.	2r	.	.	.
!	!	!	!	!LO:SIC:s=8eeee 8eee^^>\J:v	!	!	!	!	!	!	!	!	!	!	!	!	!	!	!	!	!
8GG# 8GGG#/	8e 8B 8G#\	.	8ee^^>\J	8eeee 8eee^^>\	.	.	.	.	.	.	.	.	.	.	.	.	.	.	.	.	.
!	!	!	!	!LO:SIC:s=8ffff# 8fff#^^>\L:v	!	!	!	!	!	!	!	!	!	!	!	!	!	!	!	!	!
8AA#X 8AAA#X/	8f# 8c# 8F#\	.	8ff#^^>\L	8ffff# 8fff#^^>\	.	.	.	.	.	.	.	.	.	.	.	.	.	.	.	.	.
8BBJ 8BBB/	8d#J 8B 8F#\	.	(>16eee\L	(>16eeee\L	.	.	.	.	.	.	.	.	.	.	.	.	.	.	.	.	.
.	.	.	16ddd#\JJ	16dddd#\JJ	.	.	.	.	.	.	.	.	.	.	.	.	.	.	.	.	.
=9	=9	=9	=9	=9	=9	=9	=9	=9	=9	=9	=9	=9	=9	=9	=9	=9	=9	=9	=9	=9	=9
8FF#L 8FFF#/	8c#L 8A#X 8E\	.	8ccc#\)	8cccc#\)	.	2r	.	.	.	2r	.	.	.	2r	.	.	.	2r	.	.	.
8FF# 8FFF#/	8g# 8e 8A#\	.	4ee^^\	4eeee 4eee^^\	.	.	.	.	.	.	.	.	.	.	.	.	.	.	.	.	.
8FF# 8FFF#/	8g# 8e 8A#\	.	.	.	.	.	.	.	.	.	.	.	.	.	.	.	.	.	.	.	.
8FF#J 8FFF#/	8f#J 8e 8A#\	.	(>16ddd#\LL	(>16dddd#\LL	.	.	.	.	.	.	.	.	.	.	.	.	.	.	.	.	.
.	.	.	16ccc#\JJ	16cccc#\JJ	.	.	.	.	.	.	.	.	.	.	.	.	.	.	.	.	.
=10	=10	=10	=10	=10	=10	=10	=10	=10	=10	=10	=10	=10	=10	=10	=10	=10	=10	=10	=10	=10	=10
4BB 4BBB/	8f#L 8d# 8B\	.	4bb\)	4bbb\)	.	2r	.	.	.	2r	.	.	.	2r	.	.	.	2r	.	.	.
.	8f# 8d# 8B\	.	.	.	.	.	.	.	.	.	.	.	.	.	.	.	.	.	.	.	.
4r	8f# 8d# 8B\	.	8r	8r	.	.	.	.	.	.	.	.	.	.	.	.	.	.	.	.	.
.	8f#J 8c# 8A#X\	.	(>16ddd#\LL	(>16dddd#\LL	.	.	.	.	.	.	.	.	.	.	.	.	.	.	.	.	.
.	.	.	16ccc#\JJ	16cccc#\JJ	.	.	.	.	.	.	.	.	.	.	.	.	.	.	.	.	.
=11	=11	=11	=11	=11	=11	=11	=11	=11	=11	=11	=11	=11	=11	=11	=11	=11	=11	=11	=11	=11	=11
4BB 4BBB^^>/	8d#L 8B 8F#\	.	4ff#\)	4ffff# 4fff#\)	.	2r	.	.	.	2r	.	.	.	2r	.	.	.	2r	.	.	.
.	8d#J 8B 8F#\	.	.	.	.	.	.	.	.	.	.	.	.	.	.	.	.	.	.	.	.
4FF# 4FFF#^^>/	8c#L 8A#X 8E\	.	8r	8r	.	.	.	.	.	.	.	.	.	.	.	.	.	.	.	.	.
.	8c#J 8A# 8E\	.	(>16ddd#\LL	(>16dddd#\LL	.	.	.	.	.	.	.	.	.	.	.	.	.	.	.	.	.
.	.	.	16ccc#\JJ	16cccc#\JJ	.	.	.	.	.	.	.	.	.	.	.	.	.	.	.	.	.
!!LO:PB:g=original
=12	=12	=12	=12	=12	=12	=12	=12	=12	=12	=12	=12	=12	=12	=12	=12	=12	=12	=12	=12	=12	=12
4GG# 4GGG#^^>/	8BL 8G# 8D#\	.	4bb\)	4bbb\)	.	2r	.	.	.	2r	.	.	.	2r	.	.	.	2r	.	.	.
.	8BJ 8G# 8D#\	.	.	.	.	.	.	.	.	.	.	.	.	.	.	.	.	.	.	.	.
4r	8d#L 8B 8G#\	.	8r	8r	.	.	.	.	.	.	.	.	.	.	.	.	.	.	.	.	.
.	8g#J 8d# 8B\	.	(>16ddd#\LL	(>16dddd#\LL	.	.	.	.	.	.	.	.	.	.	.	.	.	.	.	.	.
.	.	.	16ccc#\JJ	16cccc#\JJ	.	.	.	.	.	.	.	.	.	.	.	.	.	.	.	.	.
=13	=13	=13	=13	=13	=13	=13	=13	=13	=13	=13	=13	=13	=13	=13	=13	=13	=13	=13	=13	=13	=13
4AA#X 4AAA#X^^>/	8f#L 8c# 8F#\	.	4ff#\)	4ffff# 4fff#\)	.	2r	.	.	.	2r	.	.	.	2r	.	.	.	2r	.	.	.
.	8f# 8c# 8F#\	.	.	.	.	.	.	.	.	.	.	.	.	.	.	.	.	.	.	.	.
4FF# 4FFF#^^>/	8e 8A#X 8F#\	.	8r	8r	.	.	.	.	.	.	.	.	.	.	.	.	.	.	.	.	.
.	8eJ 8A# 8F#\	.	(>16ddd#\LL	(>16dddd#\LL	.	.	.	.	.	.	.	.	.	.	.	.	.	.	.	.	.
.	.	.	16ccc#\JJ	16cccc#\JJ	.	.	.	.	.	.	.	.	.	.	.	.	.	.	.	.	.
=14	=14	=14	=14	=14	=14	=14	=14	=14	=14	=14	=14	=14	=14	=14	=14	=14	=14	=14	=14	=14	=14
8BB 8BBB/	8d# 8B 8F#\	.	8bb\)	8bbb\)	.	2r	.	.	.	2r	.	.	.	2r	.	.	.	2r	.	.	.
*	*	*	*	*X8va	*	*	*	*	*	*	*	*	*	*	*	*	*	*	*	*	*
8r	8r	.	8r	8r	.	.	.	.	.	.	.	.	.	.	.	.	.	.	.	.	.
!	!LO:MO:mod=!LO&colon;TX&colon;a&colon;B&colon;t=Mezzo allegro	!	!	!LO:MO:mod=!LO&colon;TX&colon;a&colon;B&colon;t=Mezzo allegro	!	!	!	!	!	!	!	!	!	!	!	!	!	!	!	!	!
!	!LO:TX:a:i:t=Mezzo allegro	!LO:DY:rj	!	!LO:TX:a:i:t=Mezzo allegro	!	!	!	!	!	!	!	!	!	!	!	!	!	!	!	!	!
8BBL 8BBB'/	8BL 8F# 8D#'\	p	8bL 8f# 8d#'/	8bbL 8ff# 8dd#'\	p	.	.	.	.	.	.	.	.	.	.	.	.	.	.	.	.
8AAnJ 8AAAn'/	8cnJ 8Gn 8E'\	.	8ccnJ 8gn 8e'/	8cccnJ 8ggn 8ee'\	.	.	.	.	.	.	.	.	.	.	.	.	.	.	.	.	.
=15	=15	=15	=15	=15	=15	=15	=15	=15	=15	=15	=15	=15	=15	=15	=15	=15	=15	=15	=15	=15	=15
8CnL 8CCn'/	8cnL 8Gn 8E-X'\	.	8ccnL 8gn 8e-X'/	8cccnL 8ggn 8ee-X'\	.	2r	.	.	.	2r	.	.	.	2r	.	.	.	2r	.	.	.
8BB-XJ 8BBB-X'/	8d-XJ 8A-X 8Fn'\	.	8dd-XJ 8a-X 8fn'/	8ddd-XJ 8aa-X 8ffn'\	.	.	.	.	.	.	.	.	.	.	.	.	.	.	.	.	.
8D-XL 8DD-X'/	8d-L 8A- 8F-X'\	.	8dd-L 8a- 8f-X'/	8ddd-L 8aa- 8ff-X'\	.	.	.	.	.	.	.	.	.	.	.	.	.	.	.	.	.
!	!LO:MO:mod=!null:null	!	!	!LO:MO:mod=!null:null	!	!	!	!	!	!	!	!	!	!	!	!	!	!	!	!	!
!	!LO:TX:b:i:t=poco a poco crescendo:problem=dynamics with extention lines	!	!	!LO:TX:b:i:t=poco a poco crescendo:problem=dynamics with extention lines	!LO:HP:t=poco a poco crescendo:ext=s	!	!	!	!	!	!	!	!	!	!	!	!	!	!	!	!
!	!	!LO:HP:t=poco a poco crescendo:ext=s	!	!	!	!	!	!	!	!	!	!	!	!	!	!	!	!	!	!	!
8CJ 8CC'/	8e-XJ 8B-X 8Gn'\	<	8ee-XJ 8b-X 8gn'/	8eee-XJ 8bb-X 8ggn'\	<	.	.	.	.	.	.	.	.	.	.	.	.	.	.	.	.
=16	=16	=16	=16	=16	=16	=16	=16	=16	=16	=16	=16	=16	=16	=16	=16	=16	=16	=16	=16	=16	=16
8E-XL 8EE-X'/	8e-XL 8B-X 8G-X'\	.	8ee-XL 8b-X 8g-X'\	8eee-XL 8bb-X 8gg-X'\	.	2r	.	.	.	2r	.	.	.	2r	.	.	.	2r	.	.	.
8DnJ 8DDn'/	8fnJ 8cn 8An'\	.	8ffnJ 8ccn 8an'\	8fffnJ 8cccn 8aan'\	.	.	.	.	.	.	.	.	.	.	.	.	.	.	.	.	.
8FnL 8FFn'/	8fL 8c 8A-X'\	.	8ffL 8cc 8a-X'\	8fffL 8ccc 8aa-X'\	.	.	.	.	.	.	.	.	.	.	.	.	.	.	.	.	.
!	!	!LO:MO:null:mod=.	!	!	!	!	!	!	!	!	!	!	!	!	!	!	!	!	!	!	!
8E-J 8EE-'/	8g-XJ 8d-X 8B-X'\	[	8gg-XJ 8dd-X 8b-X'\	8ggg-XJ 8ddd-X 8bb-X'\	.	.	.	.	.	.	.	.	.	.	.	.	.	.	.	.	.
*	*clefG2	*	*	*	*	*	*	*	*	*	*	*	*	*	*	*	*	*	*	*	*
=17	=17	=17	=17	=17	=17	=17	=17	=17	=17	=17	=17	=17	=17	=17	=17	=17	=17	=17	=17	=17	=17
*	*	*	*	*8va	*	*	*	*	*	*	*	*	*	*	*	*	*	*	*	*	*
8G-XL 8GG-X'/	8g-XL 8d-X 8B--'/	.	8gg-XL 8dd-X 8b--'\	8ggg-XL 8ddd-X 8bb--'\	.	2r	.	.	.	2r	.	.	.	2r	.	.	.	2r	.	.	.
!	!	!LO:MO:null:mod=[	!	!	!	!	!	!	!	!	!	!	!	!	!	!	!	!	!	!	!
8FnJ 8FFn'/	8a-X 8e-X 8cn'/	.	8aa-X 8ee-X 8ccn'\	8aaa-X 8eee-X 8cccn'\	[	.	.	.	.	.	.	.	.	.	.	.	.	.	.	.	.
8A-XL 8AA-X'/	8a- 8e- 8c-X'/	.	8aa- 8ee- 8cc-X'\	8aaa- 8eee- 8ccc-X'\	.	.	.	.	.	.	.	.	.	.	.	.	.	.	.	.	.
8GnJ 8GGn'/	8b-XJ 8fn 8d-X'/	.	8bb-XJ 8ffn 8dd-X'\	8bbb-XJ 8fffn 8ddd-X'\	.	.	.	.	.	.	.	.	.	.	.	.	.	.	.	.	.
!!LO:LB:g=original
=18	=18	=18	=18	=18	=18	=18	=18	=18	=18	=18	=18	=18	=18	=18	=18	=18	=18	=18	=18	=18	=18
8GnL 8GGn'/	8b-XL 8fn 8d-X'/	.	8bb-XL 8ffn 8dd-X'\	8bbb-XL 8fffn 8ddd-X'\	.	2r	.	.	.	2r	.	.	.	2r	.	.	.	2r	.	.	.
!	!LO:TX:a:i:t=sostenuto	!	!	!LO:TX:b:i:t=sostenuto	!	!	!	!	!	!	!	!	!	!	!	!	!	!	!	!	!
8Dn 8DDn'/	8bn 8f 8Bn'/	.	8bbn 8ff'\	8bbbn 8fff'\	.	.	.	.	.	.	.	.	.	.	.	.	.	.	.	.	.
8D 8DD'/	8b 8f 8B'/	.	8bb 8ff'\	8bbb 8fff'\	.	.	.	.	.	.	.	.	.	.	.	.	.	.	.	.	.
8GGJ 8GGGn'/	8gnJ 8f 8B'/	.	8ggnJ 8ff 8b'\	8bbbJ 8gggn 8fff 8bb'\	.	.	.	.	.	.	.	.	.	.	.	.	.	.	.	.	.
=19	=19	=19	=19	=19	=19	=19	=19	=19	=19	=19	=19	=19	=19	=19	=19	=19	=19	=19	=19	=19	=19
8GGnL 8GGGn'/	8gnL 8fn 8B'/	<	8ggnL 8ffn 8b'\	8bbbL 8gggn 8fffn 8bb'\	< <	2r	.	.	.	2r	.	.	.	2r	.	.	.	2r	.	.	.
!	!	!LO:MO:null:mod=.	!	!	!	!	!	!	!	!	!	!	!	!	!	!	!	!	!	!	!
8CnJ 8CCn'/	8g 8e 8cn'/	[	8gg 8ee 8ccn'\	8ccccn 8ggg 8eee 8cccn'\	.	.	.	.	.	.	.	.	.	.	.	.	.	.	.	.	.
!	!	!	!	!	!LO:MO:null:mod=.	!	!	!	!	!	!	!	!	!	!	!	!	!	!	!	!
8AAL 8AAA'/	8a 8e 8c'/	.	8aa 8ee 8cc'\	8cccc 8aaa 8eee 8ccc'\	[ [	.	.	.	.	.	.	.	.	.	.	.	.	.	.	.	.
!	!	!LO:MO:null:mod=[	!	!	!LO:MO:null:mod=[	!	!	!	!	!	!	!	!	!	!	!	!	!	!	!	!
8FnJ 8FFn'/	8aJ 8dn 8A'/	.	8aaJ 8ddn'\	8ddddnJ 8aaa 8dddn'\	.	.	.	.	.	.	.	.	.	.	.	.	.	.	.	.	.
=20	=20	=20	=20	=20	=20	=20	=20	=20	=20	=20	=20	=20	=20	=20	=20	=20	=20	=20	=20	=20	=20
!	!LO:MO:mod=!LO&colon;TX&colon;b&colon;i&colon;t=molto riten.	!	!	!LO:MO:mod=!LO&colon;TX&colon;b&colon;i&colon;t=molto riten.	!	!LO:MO:mod=!LO&colon;TX&colon;a&colon;i&colon;t=molto riten.	!	!	!	!LO:MO:mod=!LO&colon;TX&colon;a&colon;i&colon;t=molto riten.	!	!	!	!LO:MO:mod=!LO&colon;TX&colon;a&colon;i&colon;t=molto riten.	!	!	!	!LO:MO:mod=!LO&colon;TX&colon;a&colon;i&colon;t=molto riten.	!	!	!
!	!LO:TX:a:i:t=molto ri-te-nu-to	!	!	!LO:TX:b:i:t=molto ri-te-nu-to	!	!LO:TX:b:i:t=molto riten	!	!	!	!LO:TX:b:i:t=molto riten	!	!	!	!LO:TX:b:i:t=molltoriten	!	!	!	!LO:TX:b:i:t=molto riten	!	!	!
!	!	!LO:DY:rj	!	!	!LO:DY:rj	!	!	!	!	!	!	!	!	!	!	!	!	!	!	!	!
!	!LO:SIC:s=8aL 8dn 8A'</:v	!	!	!	!	!	!	!	!	!	!	!	!	!	!	!	!	!	!	!	!
8FnL 8FFn'>'</	8aL 8dn 8A'<^^>/	f	8aaL 8ddn'\	8ddddnL 8aaa 8dddn'\	f	2r	.	.	.	2r	.	.	.	2r	.	.	.	2r	.	.	.
8BBJ 8BBB^^>/	8b 8a 8d#X 8B^^>/	.	8bb 8aa 8dd#X^^\	8dddd#X 8bbb 8aaa 8ddd#X^^\	.	.	.	.	.	.	.	.	.	.	.	.	.	.	.	.	.
8BBL 8BBB^^>/	8b 8a 8d# 8B^^>/	.	8bb 8aa 8dd#^^\	8dddd# 8bbb 8aaa 8ddd#^^\	.	.	.	.	.	.	.	.	.	.	.	.	.	.	.	.	.
8BBJ 8BBB^^>/	8bJ 8a 8d# 8B^^>/	.	8bbJ 8aa 8dd#^^\	8dddd#J 8bbb 8aaa 8ddd#^^\	.	.	.	.	.	.	.	.	.	.	.	.	.	.	.	.	.
=21	=21	=21	=21	=21	=21	=21	=21	=21	=21	=21	=21	=21	=21	=21	=21	=21	=21	=21	=21	=21	=21
8BBL 8BBB^^>/	8bL 8a 8d# 8B^^>/	.	8bbL 8aa 8dd#^^\	8dddd#L 8bbb 8aaa 8ddd#^^\	.	2r	.	.	.	2r	.	.	.	2r	.	.	.	2r	.	.	.
8BB 8BBB^^>/	8b 8a 8d# 8B^^>/	.	8bb 8aa 8dd#^^\	8dddd# 8bbb 8aaa 8ddd#^^\	.	.	.	.	.	.	.	.	.	.	.	.	.	.	.	.	.
8BB 8BBB^^>/	8b 8a 8d# 8B^^>/	.	8bb 8aa 8dd#^^\	8dddd# 8bbb 8aaa 8ddd#^^\	.	.	.	.	.	.	.	.	.	.	.	.	.	.	.	.	.
8EJ 8EE^^>/	8bJ 8g# 8e 8B^^>/	.	8bbJ 8gg# 8ee^^\	8eeeeJ 8bbb 8ggg# 8eee^^\	.	.	.	.	.	.	.	.	.	.	.	.	.	.	.	.	.
=22||	=22||	=22||	=22||	=22||	=22||	=22||	=22||	=22||	=22||	=22||	=22||	=22||	=22||	=22||	=22||	=22||	=22||	=22||	=22||	=22||	=22||
!!!OMD:
!!!OMD-mod: Tempo primo
!	!	!	!	!	!	!	!	!	!	!	!	!	!	!	!	!	!	!LO:TX:a:i:t=Tempo Io.:mod=	!	!	!
!	!	!LO:DY:rj	!	!	!LO:DY:rj	!	!LO:DY:b:rj	!	!	!	!LO:DY:b:rj	!	!	!	!LO:DY:b:rj	!	!	!	!LO:DY:b:rj	!	!
8E 8BB 8EE^^>/	8b 8g# 8e 8B^^>/	ff	8.bbL 8.gg# 8.ee^^\	8.eeeeL 8.bbb 8.ggg# 8.eee^^\	ff	8.E^\	ff	.	[Szedł	8.B^\	ff	.	[Szedł	8.g#^/	ff	Szedł	Szedł	8.ee^\	ff	.	[Szedł
!	!LO:TX:a:i:t=Tempo Io.:mod=	!	!	!	!	!	!	!	!	!	!	!	!	!	!	!	!	!	!	!	!
8r	8r	.	.	.	.	.	.	.	.	.	.	.	.	.	.	.	.	.	.	.	.
!	!	!	!	!LO:TX:b:i:t=Tempo Io.:mod= 	!	!	!	!	!	!	!	!	!	!	!	!	!	!	!	!	!
.	.	.	16dd#\Jk	16dddd#Jk 16ddd#\	.	16E\	.	.	raz	16B\	.	.	raz	16g#/	.	raz	raz	16dd#\	.	.	raz
*	*clefF4	*	*	*	*	*	*	*	*	*	*	*	*	*	*	*	*	*	*	*	*
!	!LO:TX:b:i:t=marcato	!	!	!	!	!	!	!	!	!	!	!	!	!	!	!	!	!	!	!	!
!	!	!	!	!LO:MO:mod=!LO&colon;TX&colon;b&colon;i&colon;t=marcato	!	!	!	!	!	!	!	!	!	!	!	!	!	!	!	!	!
!	!	!	!	!null	!	!	!	!	!	!	!	!	!	!	!	!	!	!	!	!	!
8BBL 8EE/	8BL 8G# 8E\	.	8cc#\L	8cccc#L 8ccc#\	.	8E\	.	.	z woj-	8B\	.	.	z woj-	8g#/	.	z_wojs-	z woj-	8cc#\	.	.	z woj-
!	!	!	!	!LO:MO:mod=!null:null	!	!	!	!	!	!	!	!	!	!	!	!	!	!	!	!	!
!	!	!	!	!LO:TX:b:i:t=marcato	!	!	!	!	!	!	!	!	!	!	!	!	!	!	!	!	!
8BBJ 8EE/	8BJ 8G# 8E\	.	8g#\J	8ggg#J 8gg#\	.	8E\	.	.	-skiem	8B\	.	.	-skiem	8e/	.	-kiem	-skiem	8g#/	.	.	-skiem
!!LO:PB:g=original
=23	=23	=23	=23	=23	=23	=23	=23	=23	=23	=23	=23	=23	=23	=23	=23	=23	=23	=23	=23	=23	=23
8BBL 8EE/	8BL 8G# 8E\	.	8b\L	8bbbL 8bb\	.	8E\	.	.	król	8B\	.	.	król	8g#/	.	król	król	8b\	.	.	król
8BB 8EE/	8B 8G# 8E\	.	8cc#\J	8cccc#J 8ccc#\	.	8E\	.	.	na	8B\	.	.	na	8g#/	.	na	na	8cc#\	.	.	na
8BB 8EE/	8B 8G# 8E\	.	8b/L	8bbbL 8bb\	.	8E\	.	.	woj-	8B\	.	.	woj-	8g#/	.	woj-	woj-	8b\	.	.	woj-
8BBJ 8EE/	8BJ 8G# 8E\	.	8g#/J	8ggg#J 8gg#\	.	8E\	.	.	-nę,	8B\	.	.	-nę,	8e/	.	-nę,	-nę,	8g#/	.	.	-nę,
=24	=24	=24	=24	=24	=24	=24	=24	=24	=24	=24	=24	=24	=24	=24	=24	=24	=24	=24	=24	=24	=24
!LO:SIC:s=8BBL 8EE^^/:v	!	!	!	!	!	!	!	!	!	!	!	!	!	!	!	!	!	!	!	!	!
8BBL 8EE/	8.BL 8.A 8.E^^>\	.	8.f#^^>/L	8.fff#L 8.ddd# 8.ff#^^>\	.	8.E^^\	.	.	szedł	8.B^^\	.	.	szedł	8.d#^^/	.	Szedł	szedł	8.f#^^/	.	.	szedł
8BB 8EE/	.	.	.	.	.	.	.	.	.	.	.	.	.	.	.	.	.	.	.	.	.
.	16BJk 16A 16E\	.	16cc#/Jk	16cccc#Jk 16ccc#\	.	16E\	.	.	na	16B\	.	.	na	16a/	.	na	na	16cc#\	.	.	na
8BB 8EE/	8BL 8G# 8E\	.	8b/L	8bbbL 8bb\	.	8E\	.	.	woj-	8B\	.	.	woj-	8g#/	.	woj-	woj-	8b\	.	.	woj-
8BBJ 8EE/	8BJ 8A 8E\	.	8a/J	8aaaJ 8aa\	.	8E\	.	.	-nę,	8B\	.	.	-nę,	8f#/	.	-nę,	-nę,	8a/	.	.	-nę,
=25	=25	=25	=25	=25	=25	=25	=25	=25	=25	=25	=25	=25	=25	=25	=25	=25	=25	=25	=25	=25	=25
8BBL 8EE/	8eL 8B 8G#\	.	8g#/L	8ggg#L 8gg#\	.	8E\	.	.	szedł	8B\	.	.	szedł	8e/	.	szedł	szedł	8g#/	.	.	szedł
8BB 8EE/	8e 8A 8F#\	.	8f#/	8fff# 8ff#\	.	8E\	.	.	na	8A/	.	.	na	8e/	.	na	na	8f#/	.	.	na
8BB 8EE/	8B 8G# 8E\	.	8g#/	8ggg# 8gg#\	.	8E\	.	.	woj-	8B/	.	.	woj-	8e/	.	woj-	woj-	8g#/	.	.	woj-
8BBJ 8EE/	8BJ 8G#\	.	8e/J	8eeeJ 8ee\	.	8E\	.	.	-nę.	8G#/	.	.	-nę.	8B/	.	-nę;	-nę.	8e/	.	.	-nę.
=26	=26	=26	=26	=26	=26	=26	=26	=26	=26	=26	=26	=26	=26	=26	=26	=26	=26	=26	=26	=26	=26
8.EL 8.EE^^>/	8.c#L 8.A#X^^>\	.	8.f#^^>/L	8.fff#L 8.ff#^^>\	.	8.E\	.	.	Szły	8.A#X/	.	.	Szły	8.c#/	.	Szły	Szły	8.f#/	.	.	Szły
16D#Jk 16DD#/	16d#Jk 16B\	.	16g#/Jk	16ggg#Jk 16gg#\	.	16D#\	.	.	za	16B/	.	.	za	16d#/	.	za	za	16g#/	.	.	za
8C#L 8CC#/	8eL 8c#\	.	8a#X/L	8aaa#XL 8aa#X\	.	8C#/	.	.	kró-	8c#\	.	.	kró-	8e/	.	kró-	kró-	8a#X/	.	.	kró-
8EJ 8EE/	8c#J 8A#\	.	8f#/J	8fff#J 8ff#\	.	8E\	.	.	-lem	8A#/	.	.	-lem	8c#/	.	-lem	-lem	8f#/	.	.	-lem
=27	=27	=27	=27	=27	=27	=27	=27	=27	=27	=27	=27	=27	=27	=27	=27	=27	=27	=27	=27	=27	=27
8D#L 8DD#/	8BL 8F#\	.	8bL 8f#/	8bbbL 8fff# 8bb\	.	8D#\	.	.	pocz-	8B\	.	.	pocz-	8f#/	.	pocz-	pocz-	8b\	.	.	pocz-
!	!	!	!	!LO:SIC:s=8aaa#X 8aa#X\J:v	!	!	!	!	!	!	!	!	!	!	!	!	!	!	!	!	!
8E 8EE/	8c# 8F#\	.	8a#X/J	8aaa#X 8aa#X\	.	8E\	.	.	-ty	8c#\	.	.	-ty	8f#/	.	-ty	-ty	8a#X/	.	.	-ty
!	!	!	!	!LO:SIC:s=8bbb 8bb\L:v	!	!	!	!	!	!	!	!	!	!	!	!	!	!	!	!	!
8D# 8DD#/	8B 8F#\	.	8b\L	8bbb 8bb\	.	8D#\	.	.	zbroj-	8B\	.	.	zbroj-	8f#/	.	zbroj-	zbroj-	8b\	.	.	zbroj-
8BBJ 8BBB/	8BJ 8F#\	.	8dd#\J	8dddd#J 8ddd#\	.	8BB/	.	.	-ne,	8B\	.	.	-ne,	8f#/	.	-ne	-ne,	8dd#\	.	.	-ne,
!!LO:LB:g=original
=28	=28	=28	=28	=28	=28	=28	=28	=28	=28	=28	=28	=28	=28	=28	=28	=28	=28	=28	=28	=28	=28
8AA#XL 8AAA#X/	8f#L 8c# 8F#\	.	8cc#\L	8cccc#L 8ccc#\	.	8AA#X/	.	.	pocz-	8c#\	.	.	pocz-	8f#/	.	Pocz-	pocz-	8cc#\	.	.	pocz-
8C# 8CC#/	8f# 8A#X 8F#\	.	8ee\	8eeee 8eee\	.	8C#/	.	.	-ty	8A#X/	.	.	-ty	8f#/	.	-ty	-ty	8ee\	.	.	-ty
8F# 8FF#/	8f# 8A#\	.	8dd#\	8dddd# 8ddd#\	.	8F#\	.	.	zbroj-	8A#/	.	.	zbroj-	8f#/	.	zbroj-	zbroj-	8dd#\	.	.	zbroj-
8EJ 8EE/	8f#J 8A# 8F#\	.	8cc#\J	8cccc#J 8ccc#\	.	8E\	.	.	-ne,	8A#/	.	.	-ne,	8f#/	.	-ne,	-ne,	8cc#\	.	.	-ne,
=29	=29	=29	=29	=29	=29	=29	=29	=29	=29	=29	=29	=29	=29	=29	=29	=29	=29	=29	=29	=29	=29
8D#L 8DD#/	8f#L 8B 8F#\	.	8ff#\L	8ffff#L 8fff#\	.	8D#\	.	.	huf-	8B\	.	.	huf-	8f#/	.	huf-	huf-	8ff#\	.	.	huf-
8G#J 8GG#/	8g#J 8d# 8B\	.	8dd#\J	8dddd#J 8ddd#\	.	8G#\	.	.	-ce	8B\	.	.	-ce	8g#/	.	-ce	-ce	8dd#\	.	.	-ce
4C# 4CC#^^>/	4g# 4e 4B 4G#^^>\	.	4bb 4gg# 4b^^>\	4gggg# 4ggg#^^>\	.	(>4C#/	.	.	stroj-	(>[>4e\	.	.	stroj-	(>[>4b\	.	stroj-	stroj-	(>4gg#\	.	.	stroj-
=30	=30	=30	=30	=30	=30	=30	=30	=30	=30	=30	=30	=30	=30	=30	=30	=30	=30	=30	=30	=30	=30
4GG# 4GGG#^^>/	4e 4B 4E^^>\	.	4ee 4b^^>\	4eeee 4eee^^>\	.	4G#\	.	.	.	4e\]	.	.	.	4b\]	.	.	.	4ee\	.	.	.
4FF# 4FFF#^^>/	8f#L 8F#\	.	8dd#L 8a#X/	8dddd#L 8ddd#\	.	4F#\)	.	.	.	8f#\L	.	.	.	8a#X/L	.	.	.	8dd#\L	.	.	.
.	8eJ 8F#\	.	8cc#J 8g#/	8cccc#J 8ccc#\	.	.	.	.	.	8e\J)	.	.	.	8g#/J)	.	.	.	8cc#\J)	.	.	.
=31	=31	=31	=31	=31	=31	=31	=31	=31	=31	=31	=31	=31	=31	=31	=31	=31	=31	=31	=31	=31	=31
8BBL 8FF# 8BBB/	8d#L 8B 8F#\	sfz	8dd# 8b 8f#/	8bbb 8fff# 8ddd# 8bb\	sfz	4B\	.	.	-ne.	4d#\	.	.	-ne.	4f#/	.	-ne.	-ne.	4b\	.	.	-ne.
8BB 8FF# 8BBB/	8d# 8B 8F#\	.	8r	8r	.	.	.	.	.	.	.	.	.	.	.	.	.	.	.	.	.
8BB 8FF# 8BBB/	8d# 8B 8F#\	.	4r	4r	.	4r	.	.	.	4r	.	.	.	4r	.	.	.	4r	.	.	.
8BBJ 8FF# 8BBB/	8d#J 8B 8F#\	.	.	.	.	.	.	.	.	.	.	.	.	.	.	.	.	.	.	.	.
=32	=32	=32	=32	=32	=32	=32	=32	=32	=32	=32	=32	=32	=32	=32	=32	=32	=32	=32	=32	=32	=32
*rep	*rep	*	*rep	*rep	*	*	*	*	*	*	*	*	*	*	*	*	*	*	*	*	*
!	!	!LO:MO:mod=sfz	!	!	!LO:MO:mod=sfz	!	!	!	!	!	!	!	!	!	!	!	!	!	!	!	!
8BBL 8FF# 8BBB/	8d#L 8B 8F#\	sfzy	8dd# 8b 8f#/	8bbb 8fff# 8ddd# 8bb\	sfzy	2r	.	.	.	2r	.	.	.	2r	.	.	.	2r	.	.	.
8BB 8FF# 8BBB/	8d# 8B 8F#\	.	8r	8r	.	.	.	.	.	.	.	.	.	.	.	.	.	.	.	.	.
8BB 8FF# 8BBB/	8d# 8B 8F#\	.	4r	4r	.	.	.	.	.	.	.	.	.	.	.	.	.	.	.	.	.
8BBJ 8FF# 8BBB/	8d#J 8B 8F#\	.	.	.	.	.	.	.	.	.	.	.	.	.	.	.	.	.	.	.	.
*Xrep	*Xrep	*	*Xrep	*Xrep	*	*	*	*	*	*	*	*	*	*	*	*	*	*	*	*	*
=33	=33	=33	=33	=33	=33	=33	=33	=33	=33	=33	=33	=33	=33	=33	=33	=33	=33	=33	=33	=33	=33
*rep	*rep	*	*	*	*	*	*	*	*	*	*	*	*	*	*	*	*	*	*	*	*
!	!	!LO:MO:mod=f	!	!	!	!	!	!	!	!	!	!	!	!	!	!	!	!	!	!	!
8BBL 8FF# 8BBB/	8d#L 8B 8F#\	sfzy	4ff# 4dd# 4b 4f#/	4fff# 4ddd# 4bb\	f	8.BB/	f	.	Z każ-	8.F#/	f	.	Z każ-	8.d#/	f	Z każ-	Z każ-	8.f#/	f	.	Z każ-
8BB 8FF# 8BBB/	8d# 8B 8F#\	.	.	.	.	.	.	.	.	.	.	.	.	.	.	.	.	.	.	.	.
.	.	.	.	.	.	16BB/	.	.	-dej	16F#/	.	.	-dej	16d#/	.	-dej	-dej	16b\	.	.	-dej
8BB 8FF# 8BBB/	8d# 8B 8F#\	.	8r	8r	.	8BB/	.	.	wio-	8F#/	.	.	wio-	8d#/	.	wios-	wio-	8a#X/	.	.	wio-
8BBJ 8FF# 8BBB/	8d#J 8B 8F#\	.	(>16ee\LL	(>16eee\LL	.	8BB/	.	.	-ski	8F#/	.	.	-ski	8d#/	.	-ki	-ski	8b\	.	.	-ski
.	.	.	16dd#\JJ	16ddd#\JJ	.	.	.	.	.	.	.	.	.	.	.	.	.	.	.	.	.
*Xrep	*Xrep	*	*	*	*	*	*	*	*	*	*	*	*	*	*	*	*	*	*	*	*
=34	=34	=34	=34	=34	=34	=34	=34	=34	=34	=34	=34	=34	=34	=34	=34	=34	=34	=34	=34	=34	=34
!	!	!LO:MO:mod=!null:null	!	!	!LO:MO:mod=!null:null	!	!	!	!	!	!	!	!	!	!	!	!	!	!	!	!
8C#L 8FF# 8BBB/	8eL 8A#X 8F#\	f	8cc#\)	8ccc#\)	f	8F#\	.	.	la-	8A#X/	.	.	la-	8f#/	.	la-	la-	8cc#\	.	.	la-
8AA#XJ 8FF# 8BBB/	8e 8c# 8F#\	.	(>4gg#^^>\	(>4ggg#^^>\	.	8F#\	.	.	-da	8c#\	.	.	-da	8f#/	.	-da-	-da	8ee\	.	.	-da
8FF#L 8BBB/	8d# 8B 8F#\	.	.	.	.	8BB/	.	.	ja-	8B\	.	.	ja-	8f#/	.	-ja-	ja-	8dd#\	.	.	ja-
8FF#J 8BBB/	8c#J 8A# 8F#\	.	16ff#\LL	16fff#\LL	.	8BB/	.	.	-kiej	8A#/	.	.	-kiej	8f#/	.	-kiej	-kiej	8cc#\	.	.	-kiej
.	.	.	16ee\JJ)	16eee\JJ)	.	.	.	.	.	.	.	.	.	.	.	.	.	.	.	.	.
!!LO:PB:g=original
=35	=35	=35	=35	=35	=35	=35	=35	=35	=35	=35	=35	=35	=35	=35	=35	=35	=35	=35	=35	=35	=35
4BB 4FF# 4BBB^^>/	4d# 4B 4F#^^>\	.	(>16dd#\LL	(>16ddd#\LL	.	8.BB/	.	.	pod	8.F#/	.	.	pod	8.d#/	.	Pod	pod	8.b/	.	.	pod
.	.	.	16cc#\	16ccc#\	.	.	.	.	.	.	.	.	.	.	.	.	.	.	.	.	.
.	.	.	16b\	16bb\	.	.	.	.	.	.	.	.	.	.	.	.	.	.	.	.	.
.	.	.	16cc#\JJ)	16ccc#\JJ)	.	16BB/	.	.	cho-	16F#/	.	.	cho-	16d#/	.	cho-	cho-	16a#X/	.	.	cho-
8BBL 8FF# 8BBB/	8f#L 8d# 8B\	.	8dd#'\L	8ddd#'\L	.	8BB/	.	.	-rą-	8F#/	.	.	-rą-	8d#/	.	-rąg-	-rą-	8b/	.	.	-rą-
8BBJ 8FF# 8BBB/	8g#J 8d# 8B\	.	8ee'\J	8eee'\J	.	8BB/	.	.	-gwie	8B\	.	.	-gwie	8d#/	.	-wie	-gwie	8g#/	.	.	-gwie
=36	=36	=36	=36	=36	=36	=36	=36	=36	=36	=36	=36	=36	=36	=36	=36	=36	=36	=36	=36	=36	=36
4BB 4FF# 4BBB^^>/	4f# 4e 4A#X^^>\	.	8cc#\	8ccc#\	.	8BB/	.	.	szły	8A#X/	.	.	szły	8e/	.	szły	szły	8f#/	.	.	szły
.	.	.	4gg#^^>\	4ggg#^^>\	.	8BB/	.	.	chło-	8A#/	.	.	chło-	8e/	.	chło-	chło-	8cc#\	.	.	chło-
8BBL 8FF# 8BBB/	8f#L 8e 8G#\	.	.	.	.	8BB/	.	.	-pa-	8G#/	.	.	-pa-	8e/	.	-pa-	-pa-	8dd#\	.	.	-pa-
8BBJ 8FF# 8BBB/	8f#J 8e 8A#\	.	(>16ff#\LL	(>16fff#\LL	.	8BB/	.	.	-ki,	8A#/	.	.	-ki,	8e/	.	-ki,	-ki,	8cc#\	.	.	-ki,
.	.	.	16ee\JJ	16eee\JJ	.	.	.	.	.	.	.	.	.	.	.	.	.	.	.	.	.
=37	=37	=37	=37	=37	=37	=37	=37	=37	=37	=37	=37	=37	=37	=37	=37	=37	=37	=37	=37	=37	=37
8BB 8FF# 8BBB/	8f#L 8d# 8B'\	.	16dd#\LL	16ddd#\LL	.	8BB/	.	.	a	8B\	.	.	a	8d#/	.	A	a	8b\	.	.	a
.	.	.	16ee\	16eee\	.	.	.	.	.	.	.	.	.	.	.	.	.	.	.	.	.
8r	8c#J 8F#'\	.	16dd#\	16ddd#\	.	8F#\	.	.	dziew-	8c#\	.	.	dziew-	8f#/	.	dzie-	dziew-	8cc#\	.	.	dziew-
.	.	.	16cc#\JJ)	16ccc#\JJ)	.	.	.	.	.	.	.	.	.	.	.	.	.	.	.	.	.
8r	[>4d# [<4B^^>\	.	8b'\L	8bb'\L	.	[>4B\	.	.	-czę-	[>4d#\	.	.	-czę-	[>4b\	.	-wczę-	-czę-	[>4dd#\	.	.	-czę-
8FF# 8FFF#^^>/	.	.	8dd#'\J	8ddd#'\J	.	.	.	.	.	.	.	.	.	.	.	.	.	.	.	.	.
=38	=38	=38	=38	=38	=38	=38	=38	=38	=38	=38	=38	=38	=38	=38	=38	=38	=38	=38	=38	=38	=38
4BB 4BBB^^>/	4d#] 4B\]	.	8ff#\	8fff#\	.	4B\]	.	.	.	4d#\]	.	.	.	4b\]	.	.	.	4dd#\]	.	.	.
.	.	.	4aa^^>\	4aaa^^>\	.	.	.	.	.	.	.	.	.	.	.	.	.	.	.	.	.
4r	4e 4c#^^\	.	.	.	.	4c#\	.	.	-ta	4e\	.	.	-ta	4cc#\	.	-ta	-ta	4ee\	.	.	-ta
.	.	.	(>16ff#\LL	(>16fff#\LL	.	.	.	.	.	.	.	.	.	.	.	.	.	.	.	.	.
.	.	.	16ee\JJ	16eee\JJ	.	.	.	.	.	.	.	.	.	.	.	.	.	.	.	.	.
=39	=39	=39	=39	=39	=39	=39	=39	=39	=39	=39	=39	=39	=39	=39	=39	=39	=39	=39	=39	=39	=39
4r	8c#L 8An'\	.	16ff#\LL	16fff#\LL	.	8A\	.	.	sta-	8c#\	.	.	sta-	8a/	.	sta-	sta-	8cc#\	.	.	sta-
.	.	.	16gg#\	16ggg#\	.	.	.	.	.	.	.	.	.	.	.	.	.	.	.	.	.
.	8d#J 8B'\	.	16ff#\	16fff#\	.	8B\	.	.	-ły	8d#\	.	.	-ły	8b\	.	-ły	-ły	8dd#\	.	.	-ły
.	.	.	16ee\JJ)	16eee\JJ)	.	.	.	.	.	.	.	.	.	.	.	.	.	.	.	.	.
8r	[>4f# [<4d#^^>\	.	8dd#'\L	8ddd#'\L	.	[>4d#\	.	.	w pro-	[>4f#\	.	.	w pro-	[>4dd#\	.	w_pro-	w pro-	[>4ff#\	.	.	w pro-
8FF# 8FFF#^^>/	.	.	8ff#'\J	8fff#'\J	.	.	.	.	.	.	.	.	.	.	.	.	.	.	.	.	.
=40	=40	=40	=40	=40	=40	=40	=40	=40	=40	=40	=40	=40	=40	=40	=40	=40	=40	=40	=40	=40	=40
4BB 4BBB^^>/	4f#] 4d#\]	.	(>16dd#\LL	(>16ddd#\LL	.	4d#\]	.	.	.	4f#\]	.	.	.	4dd#\]	.	.	.	4ff#\]	.	.	.
.	.	.	16ee\	16eee\	.	.	.	.	.	.	.	.	.	.	.	.	.	.	.	.	.
.	.	.	16ff#\	16fff#\	.	.	.	.	.	.	.	.	.	.	.	.	.	.	.	.	.
.	.	.	16gg#\JJ	16ggg#\JJ	.	.	.	.	.	.	.	.	.	.	.	.	.	.	.	.	.
4r	4e 4c#^^>\	.	16aa\LL	16aaa\LL	.	4c#\	.	.	-gu	4e\	.	.	-gu	4cc#\	.	-gu	-gu	4ee\	.	.	-gu
.	.	.	16bb\	16bbb\	.	.	.	.	.	.	.	.	.	.	.	.	.	.	.	.	.
.	.	.	16ccc#\	16cccc#\	.	.	.	.	.	.	.	.	.	.	.	.	.	.	.	.	.
.	.	.	16bb\JJ)	16bbb\JJ)	.	.	.	.	.	.	.	.	.	.	.	.	.	.	.	.	.
!!LO:LB:g=original
=41	=41	=41	=41	=41	=41	=41	=41	=41	=41	=41	=41	=41	=41	=41	=41	=41	=41	=41	=41	=41	=41
4r	4d# 4B^^>\	.	(>16ddd#\LL	(>16dddd#\LL	.	8.B\	.	.	po-	8.d#\	.	.	po-	8.b\	.	Po-	po-	8.dd#\	.	.	po-
.	.	.	16ccc#\	16cccc#\	.	.	.	.	.	.	.	.	.	.	.	.	.	.	.	.	.
.	.	.	16bb\	16bbb\	.	.	.	.	.	.	.	.	.	.	.	.	.	.	.	.	.
.	.	.	16aa#X\JJ)	16aaa#X\JJ)	.	16B\	.	.	-le-	16e\	.	.	-le-	16f#/	.	-le-	-le-	16cc#\	.	.	-le-
8r	8r	.	8bb\L	8bbb\L	.	8B\	.	.	-ca-	8d#\	.	.	-ca-	8f#/	.	-ca-	-ca-	8b\	.	.	-ca-
8F# 8FF#^^>/	8f# 8c# 8A#X^^>\	.	8ccc#J 8aa# 8ff#^^>\	8cccc#J 8aaa# 8fff#^^>\	.	8F#\	.	.	-jąc	8A#X/	.	.	-jąc	8f#/	.	-jąc	-jąc	8cc#\	.	.	-jąc
=42	=42	=42	=42	=42	=42	=42	=42	=42	=42	=42	=42	=42	=42	=42	=42	=42	=42	=42	=42	=42	=42
4BB 4BBB^^>/	4f# 4d# 4B 4F#^^>\	.	8ddd# 8bb 8ff#^^>\	8dddd# 8bbb 8fff#^^>\	.	4BB/	.	.	chłop-	4B\	.	.	chłop-	4f#/	.	chłop-	chłop-	4dd#\	.	.	chłop-
.	.	.	(>16dd#\LL	(>16ddd#\LL	.	.	.	.	.	.	.	.	.	.	.	.	.	.	.	.	.
.	.	.	16ee\JJ	16eee\JJ	.	.	.	.	.	.	.	.	.	.	.	.	.	.	.	.	.
4r	4r	.	8ff#\L)	8fff#\L)	.	4BB/	.	.	-ców	4d#\	.	.	-ców	4f#/	.	-ców	-ców	4b\	.	.	-ców]
.	.	.	(>16dd#\L	(>16ddd#\L	.	.	.	.	.	.	.	.	.	.	.	.	.	.	.	.	.
.	.	.	16cc#\JJ	16ccc#\JJ	.	.	.	.	.	.	.	.	.	.	.	.	.	.	.	.	.
=43	=43	=43	=43	=43	=43	=43	=43	=43	=43	=43	=43	=43	=43	=43	=43	=43	=43	=43	=43	=43	=43
!	!	!	!	!	!	!LO:MO:mod=!LO&colon;TX&colon;a&colon;i&colon;t=rallent.	!	!	!	!	!	!	!	!	!	!	!	!	!	!	!
!	!	!	!	!	!	!LO:TX:b:i:t=rallent	!	!	!	!LO:TX:t=P:problem=cc# or dd#	!	!	!	!	!	!	!	!	!	!	!
!	!LO:MO:mod=!LO&colon;TX&colon;b&colon;i&colon;t=rallent.	!	!	!LO:MO:mod=!LO&colon;TX&colon;b&colon;i&colon;t=rallent.	!	!	!	!	!	!LO:MO:mod=!LO&colon;TX&colon;a&colon;i&colon;t=rallent.	!	!	!	!LO:MO:mod=!LO&colon;TX&colon;a&colon;i&colon;t=rallent.	!	!	!	!LO:MO:mod=!LO&colon;TX&colon;a&colon;i&colon;t=rallent.	!	!	!
!	!null	!	!	!null	!	!	!	!	!	!null	!	!	!	!null	!	!	!	!null	!	!	!
[>2BB [<2BBB/	(>4d# 4An 4F#\	.	8b\L)	8bb\L)	.	2B\	.	.	Bo-	(>4d#\	.	.	Bo-	(<4a/	.	Bo-	Bo-	(>4ff#\	.	Bo-	Bo-
!	!	!	!	!LO:MO:mod=!null:null	!	!	!	!	!	!	!	!	!	!	!	!	!	!	!	!	!
!	!	!	!	!LO:TX:b:i:t=rallent	!	!	!	!	!	!	!	!	!	!	!	!	!	!	!	!	!
.	.	.	(>16dd#\L	(>16ddd#\L	.	.	.	.	.	.	.	.	.	.	.	.	.	.	.	.	.
.	.	.	16cc#\JJ	16ccc#\JJ	.	.	.	.	.	.	.	.	.	.	.	.	.	.	.	.	.
!	!LO:MO:mod=!null:null	!	!	!	!	!	!	!	!	!LO:MO:mod=!null:null	!	!	!	!LO:MO:mod=!null:null	!	!	!	!LO:MO:mod=!null:null	!	!	!
!	!LO:TX:b:i:t=rallent	!	!	!	!	!	!	!	!	!LO:TX:b:i:t=rallent	!	!	!	!LO:TX:a:i:t=rallent	!	!	!	!LO:TX:b:i:t=rallent	!	!	!
.	4e 4B 4G#\	.	8b\L)	8bb\L)	.	.	.	.	.	4e\)	.	.	.	4g#/)	.	.	.	4ee\	.	.	.
.	.	.	(>16ee\L	(>16eee\L	.	.	.	.	.	.	.	.	.	.	.	.	.	.	.	.	.
.	.	.	16cc#\JJ	16ccc#\JJ	.	.	.	.	.	.	.	.	.	.	.	.	.	.	.	.	.
=44	=44	=44	=44	=44	=44	=44	=44	=44	=44	=44	=44	=44	=44	=44	=44	=44	=44	=44	=44	=44	=44
!	!	!	!	!	!	!	!	!	!	!	!	!	!	!	!	!	!	!	!LO:MO:mod=!null:null	!	!
!	!	!	!	!	!	!	!	!	!	!	!	!	!	!	!	!	!	!	!LO:HP:b	!	!
4BB] 4BBB/]	4f# 4d# 4A\)	.	8a\L)	8aa\L)	>	4B\	.	.	-gu.]	4f#\	.	.	-gu.]	2a/	.	-gu:	-gu:	4dd#\)	>	.	.
.	.	.	(>16ff#\L	(>16fff#\L	.	.	.	.	.	.	.	.	.	.	.	.	.	.	.	.	.
.	.	.	16dd#\JJ	16ddd#\JJ	.	.	.	.	.	.	.	.	.	.	.	.	.	.	.	.	.
4r	4r	.	8cc#/L)	8ccc#\L)	.	4r	.	.	.	4r	.	.	.	.	.	.	.	4cc#\	]	-gu:	-gu:
.	.	.	(<16a/L	(>16aa\L	]	.	.	.	.	.	.	.	.	.	.	.	.	.	.	.	.
.	.	.	16cc#/JJ)	16ccc#\JJ)	.	.	.	.	.	.	.	.	.	.	.	.	.	.	.	.	.
=45||	=45||	=45||	=45||	=45||	=45||	=45||	=45||	=45||	=45||	=45||	=45||	=45||	=45||	=45||	=45||	=45||	=45||	=45||	=45||	=45||	=45||
!!!OMD:
!!!OMD-mod: Poco meno mosso
!	!LO:TX:a:i:t=Poco meno mosso:mod=	!	!	!LO:TX:a:i:t=Poco meno mosso:mod=	!	!	!	!	!	!	!	!	!	!	!LO:DY:b	!	!	!LO:TX:a:i:t=Poco meno mosso:mod=	!	!LO:DY:b	!LO:DY:b
(<4E 4EE/	(>16Gn\LL	p	(<8.bL 8.gn/	(<8.bbL 8.ggn/	p	2r	.	.	.	2r	.	.	.	8.gn/	p	.	[Po-	8.b\	p	"Po-	Po-
.	16B\	.	.	.	.	.	.	.	.	.	.	.	.	.	.	.	.	.	.	.	.
.	16e\	.	.	.	.	.	.	.	.	.	.	.	.	.	.	.	.	.	.	.	.
.	16B\JJ	.	16a#XJk 16f#/)	16aa#XJk 16ff#/)	.	.	.	.	.	.	.	.	.	16f#/	.	.	-wra-	16a#X/	.	-wra-	-wra-
4E-X 4EE-X/	16G\LL	.	8bL 8g/	8bbL 8gg/	.	.	.	.	.	.	.	.	.	8g/	.	.	-caj-	8b\	.	-caj-	-caj-
.	16B\	.	.	.	.	.	.	.	.	.	.	.	.	.	.	.	.	.	.	.	.
.	16G\	.	8bJ 8g/	8bbJ 8gg/	.	.	.	.	.	.	.	.	.	8g/	.	.	-cie	8b\	.	-cie	-cie
.	16B\JJ)	.	.	.	.	.	.	.	.	.	.	.	.	.	.	.	.	.	.	.	.
=46	=46	=46	=46	=46	=46	=46	=46	=46	=46	=46	=46	=46	=46	=46	=46	=46	=46	=46	=46	=46	=46
2Dn 2DDn/)	(>16Gn\LL	.	(>8ddnL 8b\	(>8dddnL 8bb\	.	2r	.	.	.	2r	.	.	.	8b\	.	.	w ry-	8ddn\	.	w_ry-	w ry-
.	16B\	.	.	.	.	.	.	.	.	.	.	.	.	.	.	.	.	.	.	.	.
.	16gn\	.	8eeJ 8ccn\	8eeeJ 8cccn\	.	.	.	.	.	.	.	.	.	8ccn\	.	.	-chły	8ee\	.	-chły	-chły
.	16B\JJ	.	.	.	.	.	.	.	.	.	.	.	.	.	.	.	.	.	.	.	.
.	16G\LL	.	4dd 4b\)	4ddd 4bb\)	.	.	.	.	.	.	.	.	.	4b\	.	.	czas	4dd\	.	czas	czas
.	16B\	.	.	.	.	.	.	.	.	.	.	.	.	.	.	.	.	.	.	.	.
.	16dn\	.	.	.	.	.	.	.	.	.	.	.	.	.	.	.	.	.	.	.	.
.	16B\JJ)	.	.	.	.	.	.	.	.	.	.	.	.	.	.	.	.	.	.	.	.
!!LO:PB:g=original
=47	=47	=47	=47	=47	=47	=47	=47	=47	=47	=47	=47	=47	=47	=47	=47	=47	=47	=47	=47	=47	=47
2Dn 2DDn/	(>16F#\LL	.	(<8.ccnL 8.a/	(<8.cccnL 8.aa/	.	2r	.	.	.	2r	.	.	.	8.a/	.	.	i	8.ccn\	.	I	i
.	16cn\	.	.	.	.	.	.	.	.	.	.	.	.	.	.	.	.	.	.	.	.
.	16dn\	.	.	.	.	.	.	.	.	.	.	.	.	.	.	.	.	.	.	.	.
.	16c\JJ	.	16bJk 16gn/)	16bbJk 16ggn/)	.	.	.	.	.	.	.	.	.	16gn/	.	.	w pa-	16b\	.	w_pa-	w pa-
.	16F#\LL	.	(<8aL 8f#'/	(<8aaL 8ff#'/	.	.	.	.	.	.	.	.	.	8f#/	.	.	-mię-	8a/	.	-mię-	-mię-
.	16Gn\	.	.	.	.	.	.	.	.	.	.	.	.	.	.	.	.	.	.	.	.
.	16A\	.	8gJ 8e'/)	8ggJ 8ee'/)	.	.	.	.	.	.	.	.	.	8e/	.	.	-ci	8gn/	.	-ci	-ci
.	16B\JJ	.	.	.	.	.	.	.	.	.	.	.	.	.	.	.	.	.	.	.	.
=48	=48	=48	=48	=48	=48	=48	=48	=48	=48	=48	=48	=48	=48	=48	=48	=48	=48	=48	=48	=48	=48
(<4Dn 4DDn/	16cn\LL	.	(<8f#L 8dn/	(<8ff#L 8ddn/	.	2r	.	.	.	2r	.	.	.	8dn/	.	.	miej-	8f#/	.	miej-	miej-
.	16A\	.	.	.	.	.	.	.	.	.	.	.	.	.	.	.	.	.	.	.	.
.	16F#\	.	8ccnJ 8a/	8cccnJ 8aa/	.	.	.	.	.	.	.	.	.	8a/	.	.	-cie	8ccn\	.	-cie	-cie
.	16A\JJ	.	.	.	.	.	.	.	.	.	.	.	.	.	.	.	.	.	.	.	.
4D#X 4DD#X/)	16B\LL	.	8bL 8gn/	8bbL 8ggn/	.	.	.	.	.	.	.	.	.	(8gn/L	.	.	nas,	(<8b/L	.	nas,	nas,
.	16A\	.	.	.	.	.	.	.	.	.	.	.	.	.	.	.	.	.	.	.	.
!	!LO:SIC:s=16B\:v	!	!	!	!	!	!	!	!	!	!	!	!	!	!	!	!	!	!	!	!
.	16B\)	.	8aJ 8f#/)	8aaJ 8ff#/)	.	.	.	.	.	.	.	.	.	8f#/J)	.	.	.	8a/J)	.	.	.
!	!LO:SIC:s=16c\JJ):v	!	!	!	!	!	!	!	!	!	!	!	!	!	!	!	!	!	!	!	!
.	16c\JJ	.	.	.	.	.	.	.	.	.	.	.	.	.	.	.	.	.	.	.	.
=49	=49	=49	=49	=49	=49	=49	=49	=49	=49	=49	=49	=49	=49	=49	=49	=49	=49	=49	=49	=49	=49
(<4E 4EE/	(>16B\LL	.	(<8.gnL 8.e/	(<8.ggnL 8.ee/	.	2r	.	.	.	2r	.	.	.	8.e/	.	.	po-	8.gn/	.	Po-	po-
.	16A#X\	.	.	.	.	.	.	.	.	.	.	.	.	.	.	.	.	.	.	.	.
.	16B\	.	.	.	.	.	.	.	.	.	.	.	.	.	.	.	.	.	.	.	.
!	!	!LO:MO:null:mod=.	!	!	!	!	!	!	!	!	!	!	!	!	!	!	!	!	!	!	!
.	16cn\JJ	<	16f#Jk 16d#X/)	16ff#Jk 16dd#X/)	.	.	.	.	.	.	.	.	.	16d#X/	.	.	-wra-	16f#/	.	-wra-	-wra-
!	!	!LO:MO:null:mod=<	!	!	!LO:MO:null:mod=<	!	!	!	!	!	!	!	!	!	!LO:MO:null:mod=<	!	!	!	!LO:MO:null:mod=<	!	!
8DnL 8DDn/	16B\LL	.	(<8gL 8e'/	(<8ggL 8ee'/	.	.	.	.	.	.	.	.	.	8e/	.	.	-caj-	8g/	.	-caj-	-caj-
.	16E\	.	.	.	.	.	.	.	.	.	.	.	.	.	.	.	.	.	.	.	.
!	!	!	!	!	!LO:MO:null:mod=.	!	!	!	!	!	!	!	!	!	!	!	!	!	!	!	!
8CnJ 8CCn/)	16An\	.	8aJ 8f#'/)	8aaJ 8ff#'/)	<	.	.	.	.	.	.	.	.	8f#/	.	.	-cie	8a/	.	-cie	-cie
!	!	!LO:MO:null:mod=.	!	!	!	!	!	!	!	!	!	!	!	!	!	!	!	!	!	!	!
.	16E\JJ	[	.	.	.	.	.	.	.	.	.	.	.	.	.	.	.	.	.	.	.
=50	=50	=50	=50	=50	=50	=50	=50	=50	=50	=50	=50	=50	=50	=50	=50	=50	=50	=50	=50	=50	=50
!	!	!	!	!	!	!	!	!	!	!	!	!	!	!	!	!	!	!	!LO:MO:mod=!null:null	!	!
!	!	!	!	!	!	!	!	!	!	!	!	!	!	!	!LO:MO:mod=!null:null	!	!	!	!	!	!
!	!	!	!	!	!	!	!	!	!	!	!	!	!	!	!LO:HP:b	!	!	!	!LO:HP:b	!	!
!	!	!	!	!	!	!	!	!	!	!	!	!	!	!	!LO:MO:null:mod=.	!	!	!	!LO:MO:null:mod=.	!	!
(<8BBL 8BBB/	16Gn\LL	.	(>8bL 8gn\	(>8bbL 8ggn\	.	2r	.	.	.	2r	.	.	.	8gn/	<	.	w ry-	8b\	<	w_ry-	w ry-
.	16A\	.	.	.	.	.	.	.	.	.	.	.	.	.	.	.	.	.	.	.	.
!	!	!	!	!	!LO:MO:null:mod=.	!	!	!	!	!	!	!	!	!	!LO:MO:null:mod=.	!	!	!	!LO:MO:null:mod=.	!	!
8EEJ 8EEE/	16B\	.	8ggnJ 8b\	8gggnJ 8bb\	[	.	.	.	.	.	.	.	.	8b/	[	.	-chły	8ggn\	[	-chły	-chły
!	!	!LO:MO:null:mod=[	!	!	!LO:MO:null:mod=[	!	!	!	!	!	!	!	!	!	!LO:MO:null:mod=[	!	!	!	!LO:MO:null:mod=[	!	!
.	16E\JJ	.	.	.	.	.	.	.	.	.	.	.	.	.	.	.	.	.	.	.	.
8FF#L 8FFF#/	16e\LL	.	8ff#L 8a#X\	8fff#L 8aa#X\	.	.	.	.	.	.	.	.	.	(<8a#X/L	.	.	czas	(8ff#\L	.	czas	czas
.	16c#X\	.	.	.	.	.	.	.	.	.	.	.	.	.	.	.	.	.	.	.	.
8AA#XJ 8AAA#X/)	16F#\	.	8eeJ 8cc#\)	8eeeJ 8ccc#\)	.	.	.	.	.	.	.	.	.	8cc#/J)	.	.	.	8ee\J)	.	.	.
.	16Gn\JJ)	.	.	.	.	.	.	.	.	.	.	.	.	.	.	.	.	.	.	.	.
=51	=51	=51	=51	=51	=51	=51	=51	=51	=51	=51	=51	=51	=51	=51	=51	=51	=51	=51	=51	=51	=51
2BB 2BBB/	(>16F#\LL	.	(>8dd#L 8b\	(>8ddd#L 8bb\	.	2r	.	.	.	2r	.	.	.	8b/	.	.	i	8dd#\	.	I	i
.	16f#\	.	.	.	.	.	.	.	.	.	.	.	.	.	.	.	.	.	.	.	.
!	!	!	!	!	!	!	!	!	!	!	!	!	!	!	!LO:MO:mod=!null:null	!	!	!	!	!	!
!	!	!LO:MO:null:mod=>	!	!	!LO:MO:null:mod=>	!	!	!	!	!	!	!	!	!	!LO:HP:b	!	!	!	!LO:DY:a	!	!
.	16d#\	.	8ff#J 8an\)	8fff#J 8aan\)	.	.	.	.	.	.	.	.	.	8an/	>	.	w pa-	8ff#\	>	w_pa-	w pa-
!	!	!LO:MO:null:mod=.	!	!	!LO:MO:null:mod=.	!	!	!	!	!	!	!	!	!	!	!	!	!	!	!	!
.	16B\JJ	>	.	.	>	.	.	.	.	.	.	.	.	.	.	.	.	.	.	.	.
.	16c#\LL	.	(<8bL 8a/	(<8bbL 8aa/	.	.	.	.	.	.	.	.	.	8a/	.	.	-mię-	8b\	.	-mię-	-mię-
.	16d#\	.	.	.	.	.	.	.	.	.	.	.	.	.	.	.	.	.	.	.	.
!	!	!	!	!	!LO:MO:null:mod=.	!	!	!	!	!	!	!	!	!	!LO:MO:null:mod=.	!	!	!	!LO:MO:null:mod=.	!	!
.	16e\	.	8eeJ 8gn/)	8eeeJ 8ggn/)	]	.	.	.	.	.	.	.	.	8gn/	]	.	-ci	8ee\	]	-ci	-ci
!	!	!LO:MO:null:mod=]	!	!	!LO:MO:null:mod=]	!	!	!	!	!	!	!	!	!	!LO:MO:null:mod=]	!	!	!	!LO:MO:null:mod=]	!	!
.	16B\JJ)	]]	.	.	.	.	.	.	.	.	.	.	.	.	.	.	.	.	.	.	.
!!LO:LB:g=original
=52	=52	=52	=52	=52	=52	=52	=52	=52	=52	=52	=52	=52	=52	=52	=52	=52	=52	=52	=52	=52	=52
!	!LO:MO:mod=!LO&colon;TX&colon;b&colon;i&colon;t=rallent.	!	!	!LO:MO:mod=!LO&colon;TX&colon;b&colon;i&colon;t=rallent.	!	!	!	!	!	!	!	!	!	!LO:MO:mod=!LO&colon;TX&colon;a&colon;i&colon;t=rallent.	!	!	!	!LO:MO:mod=!LO&colon;TX&colon;a&colon;i&colon;t=rallent.	!	!	!
!	!	!	!	!null	!	!	!	!	!	!	!	!	!	!null	!	!	!	!null	!	!	!
!	!LO:TX:b:i:t=rallent	!	!	!	!	!	!	!	!	!	!	!	!	!	!	!	!	!	!	!	!
(<4FF# 4FFF#/	(>16F#\LL	.	(<8ddnL 8e/	(<8dddnL 8ee/	.	2r	.	.	.	2r	.	.	.	(<8e/L	.	.	miej-	(>8ddn\L	.	miej-	miej-
.	16B\	.	.	.	.	.	.	.	.	.	.	.	.	.	.	.	.	.	.	.	.
!	!	!	!	!LO:MO:mod=!null:null	!	!	!	!	!	!	!	!	!	!	!	!	!	!	!	!	!
!	!	!	!	!LO:TX:b:i:t=rallent	!	!	!	!	!	!	!	!	!	!	!	!	!	!	!	!	!
!	!	!	!	!LO:SIC:s=8cccnJ 8aa/):v	!	!	!	!	!	!	!	!	!	!	!	!	!	!	!	!	!
.	16A\	.	8ccnJ 8a/)	8ccc#J 8aa/)	.	.	.	.	.	.	.	.	.	8a/J)	.	.	.	8ccn\J)	.	.	.
.	16E\JJ	.	.	.	.	.	.	.	.	.	.	.	.	.	.	.	.	.	.	.	.
*	*	*	*	*X8va	*	*	*	*	*	*	*	*	*	*	*	*	*	*	*	*	*
!	!	!	!	!	!	!	!	!	!	!	!	!	!	!LO:MO:mod=!null:null	!	!	!	!LO:MO:mod=!null:null	!	!	!
!	!	!	!	!	!	!	!	!	!	!	!	!	!	!LO:TX:a:i:t=rallent	!	!	!	!LO:TX:a:i:t=rallent	!	!	!
!	!	!	!	!LO:SIC:s=(>8bbL 8cc\:v	!	!	!	!	!	!	!	!	!	!	!	!	!	!	!	!	!
8AAL 8AAA/	16F#\LL	.	(<8bL 8cn/	(>8bbL 8ccn\	.	.	.	.	.	.	.	.	.	(<8e/L	.	.	-cie	(<8b/L	.	-cie	-cie
.	16Gn\	.	.	.	.	.	.	.	.	.	.	.	.	.	.	.	.	.	.	.	.
8CnJ 8CCn/)	16A\	.	8aJ 8f#/)	8aaJ 8ff#\)	.	.	.	.	.	.	.	.	.	8f#/J)	.	.	.	8a/J)	.	.	.
.	16E\JJ)	.	.	.	.	.	.	.	.	.	.	.	.	.	.	.	.	.	.	.	.
=53||	=53||	=53||	=53||	=53||	=53||	=53||	=53||	=53||	=53||	=53||	=53||	=53||	=53||	=53||	=53||	=53||	=53||	=53||	=53||	=53||	=53||
!!!OMD:
!!!OMD-mod: Tempo primo
!	!LO:TX:a:i:t=Tempo Io.:mod=	!	!	!LO:TX:a:i:t=Tempo Io.:mod=	!	!LO:TX:a:i:t=Tempo Io:mod=	!LO:DY:a	!	!	!	!	!	!	!	!	!	!	!LO:TX:a:i:t=Tempo Io:mod=	!	!	!
8BBL 8BBB/	8F#\L	p	4b 4d#/	4bb 4dd#\	p	8.BB/	p	Sam	Sam	2r	.	.	.	4d#/	.	.	nas!]	4b\	.	nas!"	nas!
16r	16r	.	.	.	.	.	.	.	.	.	.	.	.	.	.	.	.	.	.	.	.
16CC#'/Jk	16C#X'\Jk	.	.	.	.	16C#/	.	król	król	.	.	.	.	.	.	.	.	.	.	.	.
8CC#'/L	8C#'/L	.	4r	4r	.	8C#/	.	przo-	przo-	.	.	.	.	4r	.	.	.	4r	.	.	.
8DD#'/J	8D#'/J	.	.	.	.	8D#\	.	-dem	-dem	.	.	.	.	.	.	.	.	.	.	.	.
=54	=54	=54	=54	=54	=54	=54	=54	=54	=54	=54	=54	=54	=54	=54	=54	=54	=54	=54	=54	=54	=54
8FF#'/L	8F#'\L	.	4r	4r	.	8F#\	.	wojs-	woj-	2r	.	.	.	2r	.	.	.	2r	.	.	.
8GG#'/	8G#'\	.	.	.	.	8G#\	.	-ko	-sko	.	.	.	.	.	.	.	.	.	.	.	.
!	!	!	!	!	!LO:DY:rj	!	!	!	!	!	!	!	!	!	!	!	!	!	!	!	!
!	!	!	!	!	!LO:MO:mod=!null:null	!	!	!	!	!	!	!	!	!	!	!	!	!	!	!	!
8EE'/	8E'\	.	8a#X 8f# 8c#'/	8aa#X 8ff# 8cc#'\	p	8E\	.	wie-	wie-	.	.	.	.	.	.	.	.	.	.	.	.
8CC#'/J	8C#'\J	.	8r	8r	.	8C#/	.	-dzie	-dzie,	.	.	.	.	.	.	.	.	.	.	.	.
=55	=55	=55	=55	=55	=55	=55	=55	=55	=55	=55	=55	=55	=55	=55	=55	=55	=55	=55	=55	=55	=55
8FF#'/L	8F#'\L	.	4r	4r	.	8F#\	.	woj-	woj-	2r	.	.	.	2r	.	.	.	2r	.	.	.
(<16FF#/L	(>16F#\L	.	.	.	.	(>16F#\LL	.	-sko	-sko	.	.	.	.	.	.	.	.	.	.	.	.
16GG#/JJ)	16G#\JJ)	.	.	.	.	16G#\JJ)	.	.	.	.	.	.	.	.	.	.	.	.	.	.	.
8EE'/L	8E'\L	.	8a#X 8f# 8c#'/	8aa#X 8ff# 8cc#'\	.	8E\	.	wie-	wie-	.	.	.	.	.	.	.	.	.	.	.	.
8CC#'/J	8C#'\J	.	8r	8r	.	8C#/	.	-dzie	-dzie,	.	.	.	.	.	.	.	.	.	.	.	.
=56	=56	=56	=56	=56	=56	=56	=56	=56	=56	=56	=56	=56	=56	=56	=56	=56	=56	=56	=56	=56	=56
!	!	!	!	!	!	!	!	!	!	!	!LO:DY:a	!	!	!	!	!	!	!	!	!	!
(<4DD#/	(>4D#\	.	8f#L 8B'/	8bb 8ff# 8b'\	.	4D#\	.	wojs-	woj-	8.B\	p	Sam	Sam	2r	.	.	.	2r	.	.	.
.	.	.	16r	8r	.	.	.	.	.	.	.	.	.	.	.	.	.	.	.	.	.
!	!	!	!	!	!	!	!	!	!	!	!LO:MO:mod=!null:null	!	!	!	!	!	!	!	!	!	!
!	!	!	!	!	!	!	!	!	!	!	!LO:HP:a:t=cresc	!	!	!	!	!	!	!	!	!	!
.	.	.	16c#'/Jk	.	.	.	.	.	.	16c#\	<	król	król	.	.	.	.	.	.	.	.
4EE/	4E\	.	8c#'/L	4r	.	4E\	.	-ko	-sko	8c#\	.	przo-	przo-	.	.	.	.	.	.	.	.
.	.	.	8d#'/J	.	.	.	.	.	.	8d#\	.	-dem	-dem	.	.	.	.	.	.	.	.
!!LO:PB:g=original
=57	=57	=57	=57	=57	=57	=57	=57	=57	=57	=57	=57	=57	=57	=57	=57	=57	=57	=57	=57	=57	=57
4DD#/	4D#\	.	8.f#'/L	2r	.	4D#\	.	wie-	wie-	8.f#\	.	wojs-	woj-	2r	.	.	.	2r	.	.	.
.	.	.	16e'/Jk	.	.	.	.	.	.	16e\	.	-ko	-sko	.	.	.	.	.	.	.	.
4FF#/)	4F#\)	.	8d#'/L	.	.	4F#\	.	-dzie	-dzie,	8d#\	.	wie-	wie-	.	.	.	.	.	.	.	.
.	.	.	8c#'/J	.	.	.	.	.	.	8c#\	.	-dzie	-dzie,	.	.	.	.	.	.	.	.
=58	=58	=58	=58	=58	=58	=58	=58	=58	=58	=58	=58	=58	=58	=58	=58	=58	=58	=58	=58	=58	=58
!	!	!	!	!	!	!	!	!	!	!	!LO:DY:a:rj	!	!	!	!	!	!	!	!	!	!
2BBB/	(>4BB/	.	8d#'/L	2r	.	(>4BB/	<	wie-	wie-	8d#\	mf	wojs-	woj-	2r	.	.	.	2r	.	.	.
!	!	!	!	!	!LO:MO:mod=!null:null	!	!	!	!	!	!	!	!	!	!	!	!	!	!	!	!
!	!	!	!	!	!LO:HP:t=crescendo	!	!	!	!	!	!LO:DY:a	!	!	!	!	!	!	!	!	!	!
.	.	.	(<16d#/L	.	<	.	.	.	.	(>16d#\LL	<	-ko	-sko	.	.	.	.	.	.	.	.
.	.	.	16e/JJ)	.	.	.	.	.	.	16e\JJ)	.	.	.	.	.	.	.	.	.	.	.
!	!	!LO:MO:mod=!null:null	!	!	!	!	!	!	!	!	!	!	!	!	!	!	!	!	!	!	!
!	!	!LO:HP:t=crescendo	!	!	!	!	!	!	!	!	!	!	!	!	!	!	!	!	!	!	!
.	4F#\)	<	8d#'/L	.	.	4F#\	.	.	.	8d#\	.	wie-	wie-	.	.	.	.	.	.	.	.
.	.	.	8B'/J	.	.	.	.	.	.	8B\	.	-dzie	-dzie,	.	.	.	.	.	.	.	.
=59	=59	=59	=59	=59	=59	=59	=59	=59	=59	=59	=59	=59	=59	=59	=59	=59	=59	=59	=59	=59	=59
*	*^	*	*	*	*	*	*	*	*	*	*	*	*	*	*	*	*	*	*	*	*
2BB 2BBB/	(8E\L	4rEEyy	.	8c#'/L	4r	.	4E\)	.	.	.	8c#\	.	wojs-	woj-	2r	.	.	.	2r	.	.	.
.	8A\J)	.	.	(<16cc#/L	.	.	.	.	.	.	8A/	.	-ko	-sko	.	.	.	.	.	.	.	.
.	.	.	.	16a/JJ	.	.	.	.	.	.	.	.	.	.	.	.	.	.	.	.	.	.
.	(8c#/L	4A 4D#\	.	8f#/L)	8r	.	4D#\	.	-dzie	-dzie.	8c#\	.	wie-	wie-	.	.	.	.	.	.	.	.
*	*	*	*	*	*8va	*	*	*	*	*	*	*	*	*	*	*	*	*	*	*	*	*
!	!	!	!	!	!	!LO:DY:rj	!	!	!	!	!	!	!	!	!	!	!	!	!	!	!	!
.	8B/J)	.	.	8b'/J	8bbb 8bb\	ff	.	.	.	.	8B\	.	-dzie	-dzie.	.	.	.	.	.	.	.	.
*	*v	*v	*	*	*	*	*	*	*	*	*	*	*	*	*	*	*	*	*	*	*	*
=60	=60	=60	=60	=60	=60	=60	=60	=60	=60	=60	=60	=60	=60	=60	=60	=60	=60	=60	=60	=60	=60
!	!LO:MO:mod=!LO&colon;TX&colon;b&colon;i&colon;t=marcato	!	!	!	!	!	!	!	!	!	!	!	!	!	!	!	!	!	!	!	!
!	!LO:TX:b:i:t=marcato.	!LO:DY:rj	!	!LO:TX:b:i:t=marcato	!	!	!LO:DY:rj	!	!	!	!LO:DY:rj	!	!	!	!LO:DY:rj	!	!	!	!LO:DY:rj	!	!
8BB 8EE^^>/	8B 8G# 8E^^>\	ff	8.bL 8.g# 8.e^>/	8.eeeeL 8.bbb 8.ggg# 8.eee^\	.	8.E^>\	f	.	[Sam	8.B^>\	f	.	[Sam	8.g#^>/	f	Sam	Sam	8.ee^>\	f	.	[Sam
8r	8r	.	.	.	.	.	.	.	.	.	.	.	.	.	.	.	.	.	.	.	.
.	.	.	16dd#/Jk	16dddd#Jk 16ddd#\	.	16E\	.	.	król	16B\	.	.	król	16g#/	.	król	król	16dd#\	.	.	król
8BBL 8EE/	8BL 8G# 8E\	.	8cc#/L	8cccc#L 8ccc#\	.	8E\	.	.	przo-	8B\	.	.	przo-	8g#/	.	przo-	przo-	8cc#\	.	.	przo-
8BBJ 8EE/	8BJ 8G# 8E\	.	8g#/J	8ggg#J 8gg#\	.	8E\	.	.	-dem	8B\	.	.	-dem	8e/	.	-dem	-dem	8g#/	.	.	-dem
=61	=61	=61	=61	=61	=61	=61	=61	=61	=61	=61	=61	=61	=61	=61	=61	=61	=61	=61	=61	=61	=61
8BBL 8EE/	8BL 8G# 8E\	.	8b\L	8bbbL 8bb\	.	8E\	.	.	woj-	8B\	.	.	woj-	8g#/	.	wojs-	woj-	8b\	.	.	woj-
8BB 8EE/	8B 8G# 8E\	.	8cc#\J	8cccc#J 8ccc#\	.	8E\	.	.	-sko	8B\	.	.	-sko	8g#/	.	-ko	-sko	8cc#\	.	.	-sko
8BB 8EE/	8B 8G# 8E\	.	8b/L	8bbbL 8bb\	.	8E\	.	.	wie-	8B\	.	.	wie-	8g#/	.	wie-	wie-	8b\	.	.	wie-
8BBJ 8EE/	8BJ 8G# 8E\	.	8g#/J	8ggg#J 8gg#\	.	8E\	.	.	-dzie,	8B\	.	.	-dzie,	8e/	.	-dzie	-dzie,	8g#/	.	.	-dzie,
!!LO:LB:g=original
=62	=62	=62	=62	=62	=62	=62	=62	=62	=62	=62	=62	=62	=62	=62	=62	=62	=62	=62	=62	=62	=62
8BBL 8EE/	8.BL 8.A 8.E\	.	8.f#/L	8.fff#L 8.ccc# 8.ff#\	.	8.E\	.	.	woj-	8.B\	.	.	woj-	8.d#/	.	Wojs-	woj-	8.f#/	.	.	woj-
8BB 8EE/	.	.	.	.	.	.	.	.	.	.	.	.	.	.	.	.	.	.	.	.	.
.	16BJk 16F# 16E\	.	16cc#/Jk	16cccc#Jk 16ccc#\	.	16E\	.	.	-sko	16B\	.	.	-sko	16a/	.	-ko	-sko	16cc#\	.	.	-sko
8BB 8EE/	8BL 8G# 8E\	.	8b/L	8bbbL 8bb\	.	8E\	.	.	wie-	8B\	.	.	wie-	8g#/	.	wie-	wie-	8b\	.	.	wie-
8BBJ 8EE/	8BJ 8A 8E\	.	8a/J	8aaaJ 8aa\	.	8E\	.	.	-dzie,	8B\	.	.	-dzie,	8f#/	.	-dzie,	-dzie,	8a/	.	.	-dzie,
=63	=63	=63	=63	=63	=63	=63	=63	=63	=63	=63	=63	=63	=63	=63	=63	=63	=63	=63	=63	=63	=63
8BBL 8EE/	8eL 8B 8G#\	.	8g#/L	8ggg#L 8gg#\	.	8E\	.	.	woj-	8B/	.	.	woj-	8e/	.	wojs-	woj-	8g#/	.	.	woj-
8BB 8EE/	8e 8A 8F#\	.	8f#/	8fff# 8ff#\	.	8E\	.	.	-sko	8A/	.	.	-sko	8e/	.	-ko	-sko	8f#/	.	.	-sko
8BB 8EE/	8B 8G# 8E\	.	8g#/	8ggg# 8gg#\	.	8E\	.	.	wie-	8B/	.	.	wie-	8e/	.	wie-	wie-	8g#/	.	.	wie-
8BBJ 8EE/	8BJ 8G#\	.	8e/J	8eeeJ 8ee\	.	8E\	.	.	-dzie,	8G#/	.	.	-dzie,	8B/	.	-dzie,	-dzie,	8e/	.	.	-dzie,
=64	=64	=64	=64	=64	=64	=64	=64	=64	=64	=64	=64	=64	=64	=64	=64	=64	=64	=64	=64	=64	=64
8.EL 8.EE/	8.c#L 8.A#X\	.	8.f#/L	8.fff#L 8.ff#\	.	8.E\	.	.	a	8.A#X/	.	.	a	8.c#/	.	A	a	8.f#/	.	.	a
16D#Jk 16DD#/	16d#Jk 16B\	.	16g#/Jk	16ggg#Jk 16gg#\	.	16D#\	.	.	ka-	16B/	.	.	ka-	16d#/	.	ka-	ka-	16g#/	.	.	ka-
8C#L 8CC#/	8eL 8c#\	.	8a#X/L	8aaa#XL 8aa#X\	.	8C#/	.	.	-pe-	8c#\	.	.	-pe-	8e/	.	-pe-	-pe-	8a#X/	.	.	-pe-
8EJ 8EE/	8c#J 8A#\	.	8f#/J	8fff#J 8ff#\	.	8E\	.	.	-la	8A#/	.	.	-la	8c#/	.	-la	-la	8f#/	.	.	-la
=65	=65	=65	=65	=65	=65	=65	=65	=65	=65	=65	=65	=65	=65	=65	=65	=65	=65	=65	=65	=65	=65
8D#L 8DD#/	8BL 8F#\	.	8b/L	8bbbL 8bb\	.	8D#\	.	.	grzmi	8B\	.	.	grzmi	8f#/	.	grzmi	grzmi	8b\	.	.	grzmi
!	!	!	!	!LO:SIC:s=8aaa#X 8aa#X\J:v	!	!	!	!	!	!	!	!	!	!	!	!	!	!	!	!	!
8E 8EE/	8c# 8F#\	.	8a#X/J	8aaa#X 8aa#X\	.	8E\	.	.	na	8c#\	.	.	na	8f#/	.	na	na	8a#X/	.	.	na
!	!	!	!	!LO:SIC:s=8bbb 8bb\L:v	!	!	!	!	!	!	!	!	!	!	!	!	!	!	!	!	!
8D# 8DD#/	8B 8F#\	.	8b\L	8bbb 8bb\	.	8D#\	.	.	prze-	8B\	.	.	prze-	8f#/	.	prze-	prze-	8b\	.	.	prze-
8BBJ 8BBB/	8BJ 8F#\	.	8dd#\J	8dddd#J 8ddd#\	.	8BB/	.	.	-dzie,	8B\	.	.	-dzie,	8f#/	.	-dzie,	-dzie,	8dd#\	.	.	-dzie,
=66	=66	=66	=66	=66	=66	=66	=66	=66	=66	=66	=66	=66	=66	=66	=66	=66	=66	=66	=66	=66	=66
8AA#XL 8AAA#X/	8f#L 8c# 8F#\	.	8cc#\L	8cccc#L 8ccc#\	.	8AA#X/	.	.	a	8c#\	.	.	a	8f#/	.	A	a	8cc#\	.	.	a
8C# 8CC#/	8f# 8A#X 8F#\	.	8ee\	8eeee 8eee\	.	8C#/	.	.	ka-	8A#X/	.	.	ka-	8f#/	.	ka-	ka-	8ee\	.	.	ka-
8F# 8FF#/	8f# 8A#\	.	8dd#\	8dddd# 8ddd#\	.	8F#\	.	.	-pe-	8A#/	.	.	-pe-	8f#/	.	-pe-	-pe-	8dd#\	.	.	-pe-
8EJ 8EE/	8f#J 8A# 8F#\	.	8cc#\J	8cccc#J 8ccc#\	.	8E\	.	.	-la	8A#/	.	.	-la	8f#/	.	-la	-la	8cc#\	.	.	-la
!!LO:PB:g=original
=67	=67	=67	=67	=67	=67	=67	=67	=67	=67	=67	=67	=67	=67	=67	=67	=67	=67	=67	=67	=67	=67
8D#L 8DD#/	8f#L 8B 8F#\	.	8ff#\L	8ffff#L 8fff#\	.	8D#\	.	.	szła	8B\	.	.	szła	8f#/	.	szła	szła	8ff#\	.	.	szła
8G#J 8GG#/	8g#J 8d# 8B\	.	8dd#\J	8dddd#J 8ddd#\	.	8G#\	.	.	na	8B\	.	.	na	8g#/	.	na	na	8dd#\	.	.	na
4C# 4CC#^^>/	4g# 4e 4B 4G#^^>\	.	4bb 4gg# 4b^^>\	4gggg# 4ggg#^^>\	.	(>4C#/	.	.	prze-	(>[>4e\	.	.	prze-	(<[<4b/	.	prze-	prze-	(>4gg#\	.	.	prze-
=68	=68	=68	=68	=68	=68	=68	=68	=68	=68	=68	=68	=68	=68	=68	=68	=68	=68	=68	=68	=68	=68
4GG# 4GGG#^^>/	4e 4B 4E^^>\	.	4ee 4b^^>\	4eeee 4eee^^>\	.	4G#\	.	.	.	4e\]	.	.	.	4b/]	.	.	.	4ee\	.	.	.
!	!	!	!	!	!	!	!	!	!	!	!	!	!	!LO:SIC:s=8a#X/L:v	!	!	!	!	!	!	!
4FF# 4FFF#/	8f#L 8F#\	.	8dd#L 8a#X/	8dddd#L 8ddd#\	.	4F#\)	.	.	.	8f#\L	.	.	.	8a#X/L)	.	.	.	8dd#\L	.	.	.
!	!	!	!	!	!	!	!	!	!	!	!	!	!	!LO:SIC:s=8g#/J):v	!	!	!	!	!	!	!
.	8eJ 8F#\	.	8cc#J 8g#/	8cccc#J 8ccc#\	.	.	.	.	.	8e\J)	.	.	.	8g#/J	.	.	.	8cc#\J)	.	.	.
=69	=69	=69	=69	=69	=69	=69	=69	=69	=69	=69	=69	=69	=69	=69	=69	=69	=69	=69	=69	=69	=69
4BB 4BBB^^>/	8d#L 8B 8F#\	.	8dd# 8b 8f#/	8bbb 8fff# 8ddd# 8bb\	sfz	4B\	.	.	-dzie.]	4d#\	.	.	-dzie.]	4f#/	.	-dzie,	-dzie.	4b\	.	.	-dzie.]
.	8d# 8B 8F#\	.	8r	8r	.	.	.	.	.	.	.	.	.	.	.	.	.	.	.	.	.
4FF# 4FFF#^^>/	8d# 8B 8F#\	.	4r	4r	.	4r	.	.	.	4r	.	.	.	4r	.	.	.	4r	.	.	.
.	8d#J 8B 8F#\	.	.	.	.	.	.	.	.	.	.	.	.	.	.	.	.	.	.	.	.
=70	=70	=70	=70	=70	=70	=70	=70	=70	=70	=70	=70	=70	=70	=70	=70	=70	=70	=70	=70	=70	=70
*rep	*rep	*	*rep	*rep	*	*	*	*	*	*	*	*	*	*	*	*	*	*	*	*	*
!	!	!	!	!	!LO:MO:mod=sfz	!	!	!	!	!	!	!	!	!	!	!	!	!	!	!	!
4BB 4BBB^^>/	8d#L 8B 8F#\	.	8dd# 8b 8f#/	8bbb 8fff# 8ddd# 8bb\	sfzy	2r	.	.	.	2r	.	.	.	2r	.	.	.	2r	.	.	.
.	8d# 8B 8F#\	.	8r	8r	.	.	.	.	.	.	.	.	.	.	.	.	.	.	.	.	.
4FF# 4FFF#^^>/	8d# 8B 8F#\	.	4r	4r	.	.	.	.	.	.	.	.	.	.	.	.	.	.	.	.	.
.	8d#J 8B 8F#\	.	.	.	.	.	.	.	.	.	.	.	.	.	.	.	.	.	.	.	.
*Xrep	*Xrep	*	*Xrep	*Xrep	*	*	*	*	*	*	*	*	*	*	*	*	*	*	*	*	*
=71	=71	=71	=71	=71	=71	=71	=71	=71	=71	=71	=71	=71	=71	=71	=71	=71	=71	=71	=71	=71	=71
4BB 4BBB^^>/	8d#L 8B 8An 8F#\	.	4.dd# 4.an 4.f#^>/	4.aaan 4.fff# 4.ddd# 4.aan^>\	.	2r	.	.	.	2r	.	.	.	2r	.	.	.	2r	.	.	.
.	8d# 8B 8A 8F#\	.	.	.	.	.	.	.	.	.	.	.	.	.	.	.	.	.	.	.	.
4FF# 4FFF#^^>/	8d# 8B 8A 8F#\	.	.	.	.	.	.	.	.	.	.	.	.	.	.	.	.	.	.	.	.
.	8d#J 8B 8A 8F#\	.	(>16gg#\LL	(>16ggg#\LL	.	.	.	.	.	.	.	.	.	.	.	.	.	.	.	.	.
.	.	.	16ff#\JJ	16fff#\JJ	.	.	.	.	.	.	.	.	.	.	.	.	.	.	.	.	.
=72	=72	=72	=72	=72	=72	=72	=72	=72	=72	=72	=72	=72	=72	=72	=72	=72	=72	=72	=72	=72	=72
4BB 4BBB^^>/	8eL 8B 8G# 8E\	.	8ee\)	8eee\)	.	2r	.	.	.	2r	.	.	.	2r	.	.	.	2r	.	.	.
.	8e 8B 8G# 8E\	.	4ccc#^^>\	4cccc#^^>\	.	.	.	.	.	.	.	.	.	.	.	.	.	.	.	.	.
4EE 4EEE^^>/	8e 8B 8G# 8E\	.	.	.	.	.	.	.	.	.	.	.	.	.	.	.	.	.	.	.	.
.	8eJ 8B 8G# 8E\	.	(>16bb\LL	(>16bbb\LL	.	.	.	.	.	.	.	.	.	.	.	.	.	.	.	.	.
.	.	.	16gg#\JJ	16ggg#\JJ	.	.	.	.	.	.	.	.	.	.	.	.	.	.	.	.	.
*	*clefG2	*	*	*	*	*	*	*	*	*	*	*	*	*	*	*	*	*	*	*	*
=73	=73	=73	=73	=73	=73	=73	=73	=73	=73	=73	=73	=73	=73	=73	=73	=73	=73	=73	=73	=73	=73
4BB 4BBB^^>/	8f#L 8d# 8B 8A/	.	16aa\LL	16aaa\LL	.	2r	.	.	.	2r	.	.	.	2r	.	.	.	2r	.	.	.
.	.	.	16gg#\	16ggg#\	.	.	.	.	.	.	.	.	.	.	.	.	.	.	.	.	.
.	8f# 8d# 8B 8A/	.	16ff#\	16fff#\	.	.	.	.	.	.	.	.	.	.	.	.	.	.	.	.	.
.	.	.	16ee\JJ)	16eee\JJ)	.	.	.	.	.	.	.	.	.	.	.	.	.	.	.	.	.
4FF# 4FFF#^^>/	8f# 8d# 8B 8A/	.	8dd#'\L	8ddd#'\L	.	.	.	.	.	.	.	.	.	.	.	.	.	.	.	.	.
.	8f#J 8d# 8B 8A/	.	8b'\J	8bb'\J	.	.	.	.	.	.	.	.	.	.	.	.	.	.	.	.	.
!!LO:LB:g=original
=74	=74	=74	=74	=74	=74	=74	=74	=74	=74	=74	=74	=74	=74	=74	=74	=74	=74	=74	=74	=74	=74
4E 4EE^^>/	4e 4B 4G#^^>/	.	4ee'\	4eee 4bb 4gg#'\	.	2r	.	.	.	2r	.	.	.	2r	.	.	.	2r	.	.	.
*	*clefF4	*	*	*	*	*	*	*	*	*	*	*	*	*	*	*	*	*	*	*	*
4EE 4EEE^^>/	8E^^>/L	.	4r	4r	.	.	.	.	.	.	.	.	.	.	.	.	.	.	.	.	.
.	8Dn/J	.	.	.	.	.	.	.	.	.	.	.	.	.	.	.	.	.	.	.	.
=75	=75	=75	=75	=75	=75	=75	=75	=75	=75	=75	=75	=75	=75	=75	=75	=75	=75	=75	=75	=75	=75
!	!LO:TX:a:i:t=marcato	!LO:DY:rj	!	!	!	!	!LO:DY:a:rj	!	!	!	!	!	!	!	!	!	!	!	!	!	!
4AA 4AAA^^>/	8.C#^>\L	f	4r	4r	.	8.C#/	f	Trom-	Trom-	2r	.	.	.	2r	.	.	.	2r	.	.	.
.	16E\Jk	.	.	.	.	16E\	.	-bo-	-bo-	.	.	.	.	.	.	.	.	.	.	.	.
!	!	!	!	!	!LO:DY:t= :mod=%s	!	!	!	!	!	!	!	!	!	!	!	!	!	!	!	!
!	!	!	!	!	!LO:MO:mod=!LO&colon;DY&colon;ed=brack	!	!	!	!	!	!	!	!	!	!	!	!	!	!	!	!
!	!	!	!	!	!null	!	!	!	!	!	!	!	!	!	!	!	!	!	!	!	!
4C# 4CC#^^>/	8A\L	.	(>16ee\LL	(>16eee\LL	f	8A\	.	-nis-	-ni-	.	.	.	.	.	.	.	.	.	.	.	.
.	.	.	16ff#\	16fff#\	.	.	.	.	.	.	.	.	.	.	.	.	.	.	.	.	.
.	8B\J	.	16ee\	16eee\	.	8B\	.	-ta	-sta	.	.	.	.	.	.	.	.	.	.	.	.
.	.	.	16ff#\JJ	16fff#\JJ	.	.	.	.	.	.	.	.	.	.	.	.	.	.	.	.	.
=76	=76	=76	=76	=76	=76	=76	=76	=76	=76	=76	=76	=76	=76	=76	=76	=76	=76	=76	=76	=76	=76
4E 4EE^^>/	8G#\L	.	8ee\L)	8eee\L)	.	8G#\	.	rej	rej	2r	.	.	.	2r	.	.	.	2r	.	.	.
.	8F#\	.	(>16ddn\L	(>16dddn\L	.	8F#\	.	tam	tam	.	.	.	.	.	.	.	.	.	.	.	.
.	.	.	16cc#\JJ	16ccc#\JJ	.	.	.	.	.	.	.	.	.	.	.	.	.	.	.	.	.
4GG# 4GGG#^^>/	8E\	.	8dd\L)	8ddd\L)	.	8E\	.	wie-	wie-	.	.	.	.	.	.	.	.	.	.	.	.
.	8Dn\J	.	8b'\J	8bb'\J	.	8Dn\	.	-dzie,	-dzie,	.	.	.	.	.	.	.	.	.	.	.	.
=77	=77	=77	=77	=77	=77	=77	=77	=77	=77	=77	=77	=77	=77	=77	=77	=77	=77	=77	=77	=77	=77
2AA 2AAA^^>/	8.C#/L	.	8ee 8cc#\	8eee 8ccc#\	.	8.C#/	.	Do-	do-	2r	.	.	.	2r	.	.	.	2r	.	.	.
.	.	.	4aa^>\	4aaa^>\	.	.	.	.	.	.	.	.	.	.	.	.	.	.	.	.	.
.	16BB/Jk	.	.	.	.	16BB/	.	-bosz	-bosz	.	.	.	.	.	.	.	.	.	.	.	.
.	8C#/L	.	.	.	.	8C#/	.	przy	przy	.	.	.	.	.	.	.	.	.	.	.	.
.	8Dn/J	.	16gg#\LL	16ggg#\LL	.	8Dn\	.	nim	nim	.	.	.	.	.	.	.	.	.	.	.	.
.	.	.	(>16ff#\JJ	(>16fff#\JJ	.	.	.	.	.	.	.	.	.	.	.	.	.	.	.	.	.
=78	=78	=78	=78	=78	=78	=78	=78	=78	=78	=78	=78	=78	=78	=78	=78	=78	=78	=78	=78	=78	=78
2C# 2CC#^^>/	8E\L	.	16ee\LL	16eee\LL	.	8E\	.	w_bę-	w bę-	2r	.	.	.	2r	.	.	.	2r	.	.	.
.	.	.	16ff#\	16fff#\	.	.	.	.	.	.	.	.	.	.	.	.	.	.	.	.	.
.	8G#\	.	16ee\	16eee\	.	8G#\	.	-ben	-ben	.	.	.	.	.	.	.	.	.	.	.	.
.	.	.	16ff#\JJ)	16fff#\JJ)	.	.	.	.	.	.	.	.	.	.	.	.	.	.	.	.	.
.	8B\	.	8ee\	8eee\	.	8B\	.	wa-	wa-	.	.	.	.	.	.	.	.	.	.	.	.
*	*	*	*	*X8va	*	*	*	*	*	*	*	*	*	*	*	*	*	*	*	*	*
.	8A\J	.	8r	8r	.	8A\	.	-li	-li,	.	.	.	.	.	.	.	.	.	.	.	.
=79	=79	=79	=79	=79	=79	=79	=79	=79	=79	=79	=79	=79	=79	=79	=79	=79	=79	=79	=79	=79	=79
!	!	!	!	!	!	!	!	!	!	!	!LO:DY:rj	!	!	!	!	!	!	!	!	!	!
2FF# 2FFF#^^>/	4c# 4A^^>\	.	2r	2r	.	8.A\	.	.	[trom-	8.c#\	f	Trom-	Trom-	2r	.	.	.	2r	.	.	.
.	.	.	.	.	.	16A\	.	.	-bo-	16c#\	.	-bo-	-bo-	.	.	.	.	.	.	.	.
.	8f#L 8F#\	.	.	.	.	8F#\	.	.	-ni-	8f#\	.	-nis-	-ni-	.	.	.	.	.	.	.	.
.	8eJ 8A\	.	.	.	.	8A\	.	.	-sta	8e\	.	-ta	-sta	.	.	.	.	.	.	.	.
!!LO:PB:g=original
=80	=80	=80	=80	=80	=80	=80	=80	=80	=80	=80	=80	=80	=80	=80	=80	=80	=80	=80	=80	=80	=80
2BB 2BBB^^>/	8d#XL 8F#\	.	2r	(16ff#\LL	mf	8F#\	.	.	rej	8d#\	.	rej	rej	2r	.	.	.	2r	.	.	.
.	.	.	.	16gg#\	.	.	.	.	.	.	.	.	.	.	.	.	.	.	.	.	.
.	8c# 8A\	.	.	16aa\	<	8A\	.	.	tam	8c#\	.	tam	tam	.	.	.	.	.	.	.	.
.	.	.	.	16bb\JJ	.	.	.	.	.	.	.	.	.	.	.	.	.	.	.	.	.
.	8B 8G#\	.	.	16ccc#\LL	.	8G#\	.	.	wie-	8B\	.	wie-	wie-	.	.	.	.	.	.	.	.
.	.	.	.	16ddd#\	.	.	.	.	.	.	.	.	.	.	.	.	.	.	.	.	.
.	8AJ 8F#\	.	.	16eee\	.	8E\	.	.	-dzie,	8A/	.	-dzie,	-dzie,	.	.	.	.	.	.	.	.
.	.	.	.	16fff#\JJ)	[	.	.	.	.	.	.	.	.	.	.	.	.	.	.	.	.
=81	=81	=81	=81	=81	=81	=81	=81	=81	=81	=81	=81	=81	=81	=81	=81	=81	=81	=81	=81	=81	=81
!	!	!	!	!	!	!	!	!	!	!	!	!	!	!	!LO:DY:rj	!	!	!	!	!	!
2EE 2EEE^^>/	8G#L 8E\	.	8.e^</L	8ggg#\	f	8E\	.	.	do-	8G#/	.	Do-	do-	8.e/	f	Trom-	Trom-	2r	.	.	.
.	8A 8F#\	.	.	8r	.	8F#\	.	.	-bosz	8A/	.	-bosz	-bosz	.	.	.	.	.	.	.	.
.	.	.	16ddn/Jk	.	.	.	.	.	.	.	.	.	.	16ddn\	.	-bo-	-bo-	.	.	.	.
.	8B 8G#\	.	8b'/L	4r	.	8G#\	.	.	przy	8B\	.	przy	przy	8b/	.	-ni-	-ni-	.	.	.	.
.	8c#J 8A\	.	8a'/J	.	.	8A\	.	.	nim	8c#\	.	nim	nim	8a/	.	-sta	-sta	.	.	.	.
=82	=82	=82	=82	=82	=82	=82	=82	=82	=82	=82	=82	=82	=82	=82	=82	=82	=82	=82	=82	=82	=82
4EE/	4dn 4B\	.	8g#'/L	(>16ee\LL	.	2B\	.	.	w bę-	2dn\	.	w_bę-	w bę-	8g#/	.	rej	rej	2r	.	.	.
.	.	.	.	16ff#\	.	.	.	.	.	.	.	.	.	.	.	.	.	.	.	.	.
.	.	.	8f#'/	16ee\	.	.	.	.	.	.	.	.	.	8f#/	.	tam	tam	.	.	.	.
.	.	.	.	16ff#\JJ)	.	.	.	.	.	.	.	.	.	.	.	.	.	.	.	.	.
[<4EE^^>/	(>16E\LL	.	8g#'/	8ee\	.	.	.	.	.	.	.	.	.	8g#/	.	wie-	wie-	.	.	.	.
.	16G#\	.	.	.	.	.	.	.	.	.	.	.	.	.	.	.	.	.	.	.	.
.	16B\	.	8e'/J	8r	.	.	.	.	.	.	.	.	.	8e/	.	-dzie,	-dzie,	.	.	.	.
.	16d\JJ)	.	.	.	.	.	.	.	.	.	.	.	.	.	.	.	.	.	.	.	.
=83	=83	=83	=83	=83	=83	=83	=83	=83	=83	=83	=83	=83	=83	=83	=83	=83	=83	=83	=83	=83	=83
4EE/]	4c# 4A\	.	8.a^</L	8r	.	2A\	.	.	-ben	2c#\	.	-ben	-ben	8.a/	.	Do-	do-	2r	.	.	.
.	.	.	.	(>16cc#\LL	.	.	.	.	.	.	.	.	.	.	.	.	.	.	.	.	.
.	.	.	16g#'/Jk	16ddn\JJ	.	.	.	.	.	.	.	.	.	16g#/	.	-bosz	-bosz	.	.	.	.
4AA 4AAA/	(>16E\LL	.	8f#'/L	8ee\)	.	.	.	.	.	.	.	.	.	8f#/	.	przy	przy	.	.	.	.
.	16F#\	.	.	.	.	.	.	.	.	.	.	.	.	.	.	.	.	.	.	.	.
.	16A\	.	8e'/J	8r	.	.	.	.	.	.	.	.	.	8e/	.	nim	nim	.	.	.	.
.	16c#\JJ)	.	.	.	.	.	.	.	.	.	.	.	.	.	.	.	.	.	.	.	.
=84	=84	=84	=84	=84	=84	=84	=84	=84	=84	=84	=84	=84	=84	=84	=84	=84	=84	=84	=84	=84	=84
!	!	!	!	!	!	!	!LO:MO:mod=!null:null	!	!	!	!	!	!	!	!	!	!	!	!	!	!
!	!	!	!	!	!	!	!	!	!	!	!LO:MO:mod=!null:null	!	!	!	!	!	!	!	!	!	!
!	!	!	!	!	!	!	!LO:HP:b	!	!	!	!LO:HP:b	!	!	!	!LO:DY:a	!	!	!	!	!	!
!	!	!	!	!	!LO:MO:null:mod=>	!	!	!	!	!	!	!	!	!	!	!	!	!	!	!	!
2BB 2BBB/	4.A 4.F#\	>	8d#X'/L	8r	.	2F#\	>]	.	wa-	2A/	>]	wa-	wa-	8d#X/	>	w bę-	w bę-	2r	.	.	.
!	!	!	!	!	!LO:MO:null:mod=.	!	!	!	!	!	!	!	!	!	!	!	!	!	!	!	!
.	.	.	8f#'/	(16ff#\LL	>	.	.	.	.	.	.	.	.	8f#/	.	-ben	-ben	.	.	.	.
.	.	.	.	16gg#\JJ	.	.	.	.	.	.	.	.	.	.	.	.	.	.	.	.	.
!	!	!	!	!	!	!	!	!	!	!	!	!	!	!	!LO:MO:null:mod=.	!	!	!	!	!	!
.	.	.	8b'/	8aa\L)	.	.	.	.	.	.	.	.	.	8b/	]	wa-	wa-	.	.	.	.
!	!	!	!	!	!LO:MO:null:mod=]]	!	!	!	!	!	!	!	!	!	!LO:MO:null:mod=]]	!	!	!	!	!	!
.	8d#X 8A 8F#\	]]	8dd#'/J	8ddd#\J	]	.	.	.	.	.	.	.	.	8d#/	.	-li,	-li,	.	.	.	.
=85	=85	=85	=85	=85	=85	=85	=85	=85	=85	=85	=85	=85	=85	=85	=85	=85	=85	=85	=85	=85	=85
!	!	!	!	!	!	!	!	!	!	!	!	!	!	!	!LO:DY:rj	!	!	!	!LO:DY:rj	!	!
8Cn 8CCn/	8e 8Gn 8E\	p	8.ee'\L	8.eee'\L	p	4E\	.	.	-li.]	4Gn/	.	-li.	-li.	8.e/	p	A	a	8.ee\	p	A	A
8r	8r	.	.	.	.	.	.	.	.	.	.	.	.	.	.	.	.	.	.	.	.
.	.	.	16b'\Jk	16bb'\Jk	.	.	.	.	.	.	.	.	.	16e/	.	gdy	gdy	16b\	.	gdy	gdy
8C'/L	(>16G\LL	.	8b'\L	8bb'\L	.	4r	.	.	.	4r	.	.	.	8e/	.	na-	na-	8b\	.	na-	na-
.	16F#\	.	.	.	.	.	.	.	.	.	.	.	.	.	.	.	.	.	.	.	.
8C'/J	16G\	.	8ddn'\J	8dddn'\J	.	.	.	.	.	.	.	.	.	8e/	.	-szą	-szą	8ddn\	.	-szą	-szą
.	16G#X\JJ)	.	.	.	.	.	.	.	.	.	.	.	.	.	.	.	.	.	.	.	.
!!LO:PB:g=original
=86	=86	=86	=86	=86	=86	=86	=86	=86	=86	=86	=86	=86	=86	=86	=86	=86	=86	=86	=86	=86	=86
8Cn'/L	(>16A\LL	.	8ccn'\L	8cccn'\L	.	2r	.	.	.	2r	.	.	.	8fn/	.	.	[wieś	8ccn\	.	wieś	wieś
.	16cn\	.	.	.	.	.	.	.	.	.	.	.	.	.	.	.	.	.	.	.	.
8C'/	16fn\	.	8b'\	8bb'\	.	.	.	.	.	.	.	.	.	8f/	.	.	mi-	8b\	.	mi-	mi-
.	16c\JJ	.	.	.	.	.	.	.	.	.	.	.	.	.	.	.	.	.	.	.	.
8C'/	16f\LL	.	8cc'\	8ccc'\	.	.	.	.	.	.	.	.	.	8f/	.	.	-ja-	8cc\	.	-ja-	-ja-
.	16c\	.	.	.	.	.	.	.	.	.	.	.	.	.	.	.	.	.	.	.	.
8C'/J	16A\	.	8a'\J	8aa'\J	.	.	.	.	.	.	.	.	.	8f/	.	.	-li,	8a/	.	-li,	-li,
.	16c\JJ	.	.	.	.	.	.	.	.	.	.	.	.	.	.	.	.	.	.	.	.
=87	=87	=87	=87	=87	=87	=87	=87	=87	=87	=87	=87	=87	=87	=87	=87	=87	=87	=87	=87	=87	=87
8Cn'/L	16B\LL	.	8.ddnL 8.fn^>/	8.dddnL 8.ffn^>\	.	2r	.	.	.	2r	.	.	.	8.fn/	.	.	hej,	8.ddn\	.	Hej,	hej,
.	16A\	.	.	.	.	.	.	.	.	.	.	.	.	.	.	.	.	.	.	.	.
8C'/	16Gn\	.	.	.	.	.	.	.	.	.	.	.	.	.	.	.	.	.	.	.	.
.	16A\JJ	.	16fJk 16dn'/	16ffJk 16ddn'\	.	.	.	.	.	.	.	.	.	16dn/	.	.	z kra-	16fn/	.	z_kra-	z kra-
8C'/	16G\LL	.	8fL 8d'/	8ffL 8dd'\	.	.	.	.	.	.	.	.	.	8d/	.	.	-kow-	8f/	.	-kow-	-kow-
.	16A\	.	.	.	.	.	.	.	.	.	.	.	.	.	.	.	.	.	.	.	.
8C'/J	16B\	.	8aJ 8f'/	8aaJ 8ff'\	.	.	.	.	.	.	.	.	.	8f/	.	.	-ska	8a/	.	-ska	-ska
.	16G\JJ	.	.	.	.	.	.	.	.	.	.	.	.	.	.	.	.	.	.	.	.
=88	=88	=88	=88	=88	=88	=88	=88	=88	=88	=88	=88	=88	=88	=88	=88	=88	=88	=88	=88	=88	=88
8Cn'/	8cn\)	.	8gnL 8e'/	8ggnL 8ee'\	.	2r	.	.	.	2r	.	.	.	8e/	.	.	za-	8gn/	.	za-	za-
!	!	!	!	!LO:SIC:s=8ff#X 8dd#X'\J:v	!	!	!	!	!	!	!	!	!	!	!	!	!	!	!	!	!
8r	8r	.	8f#XJ 8d#X'/	8ff#X 8dd#X'\	.	.	.	.	.	.	.	.	.	8d#X/	.	.	-śpie-	8f#X/	.	-śpie-	-śpie-
!	!	!	!	!	!	!	!	!	!	!	!	!	!	!	!	!	!	!LO:SIC:s=8g/:v	!	!	!
!	!	!	!	!LO:SIC:s=8gg 8ee'\L:v	!	!	!	!	!	!	!	!	!	!	!	!	!	!	!	!	!
4C 4CCn/	(>8Gn\L	.	8gL 8e'/	8gg 8ee'\	.	.	.	.	.	.	.	.	.	8e/	.	.	-wa-	8g#X/	.	-wa-	-wa-
!	!	!	!	!	!	!	!	!	!	!	!	!	!	!	!	!	!	!LO:SIC:s=8cc\:v	!	!	!
.	8A\J)	.	8ccnJ 8e'/	8cccnJ 8ee'\	.	.	.	.	.	.	.	.	.	8e/	.	.	-li:	8cc#\	.	-li:	-li:
=89||	=89||	=89||	=89||	=89||	=89||	=89||	=89||	=89||	=89||	=89||	=89||	=89||	=89||	=89||	=89||	=89||	=89||	=89||	=89||	=89||	=89||
!!!OMD:
!!!OMD-mod: Meno mosso
!	!LO:TX:a:i:t=Meno mosso:mod=	!	!	!LO:TX:a:i:t=Meno mosso:mod=	!	!	!LO:DY:rj	!	!	!	!LO:DY:rj	!	!	!	!	!	!	!LO:TX:a:i:t=Meno mosso:mod=	!	!	!
!	!	!	!	!	!LO:DY:t= :mod=%s	!	!	!	!	!	!	!	!	!	!	!	!	!	!	!	!
!	!	!	!	!	!LO:MO:mod=!LO&colon;DY&colon;ed=brack	!	!	!	!	!	!	!	!	!	!	!	!	!	!	!	!
!	!	!	!	!	!null	!	!	!	!	!	!	!	!	!	!	!	!	!	!	!	!
!	!LO:MO:mod=!LO&colon;TX&colon;b&colon;i&colon;t=espressivo	!	!	!	!	!	!	!	!	!	!	!	!	!	!	!	!	!	!	!	!
!	!null	!	!	!	!	!	!	!	!	!	!	!	!	!	!	!	!	!	!	!	!
[>2BB [<2BBB/	8BL 8G#X\	mf	(>4e/	2eee 2ee\	mf	8G#X\	f	.	Da-	8B\	f	"Da-	Da-	2e/	.	.	Da-	2ee\	.	"Da-	Da-
!	!LO:MO:mod=!null:null	!	!	!	!	!	!	!	!	!	!	!	!	!	!	!	!	!	!	!	!
!	!LO:TX:b:i:t=espressivo	!	!	!	!	!	!	!	!	!LO:TX:a:i:t=Meno mosso:mod=	!	!	!	!	!	!	!	!	!	!	!
.	8BJ 8G#\	.	.	.	.	8G#\	.	.	-na,	8B\	.	-na,	-na,	.	.	.	.	.	.	.	.
.	(<8qd#/	.	.	.	.	.	.	.	.	(<8qd#/	.	.	.	.	.	.	.	.	.	.	.
.	(>8.c#L 8.A\)	.	4b\)	.	.	8.A\	.	.	hej	8.c#\)	.	hej	hej	.	.	.	.	.	.	.	.
.	16BJk 16G#\)	.	.	.	.	16G#\	.	.	ta	16B\	.	ta	ta	.	.	.	.	.	.	.	.
=90	=90	=90	=90	=90	=90	=90	=90	=90	=90	=90	=90	=90	=90	=90	=90	=90	=90	=90	=90	=90	=90
4BB] 4BBB/]	8e 8G#\	.	4b\	4bb 4ee\	.	8G#\	.	.	da-	8e\	.	da-	da-	4e/	.	.	-na,]	4b\	.	-na"	-na,
.	4B 4G#^>\	.	.	.	.	4G#^>\	.	.	-na,	4B^>\	.	-na,	-na,	.	.	.	.	.	.	.	.
(<8EE/L	.	.	4r	4r	.	.	.	.	.	.	.	.	.	4r	.	.	.	4r	.	.	.
8GG#/J)	8r	.	.	.	.	8r	.	.	.	8r	.	.	.	.	.	.	.	.	.	.	.
!!LO:PB:g=original
=91	=91	=91	=91	=91	=91	=91	=91	=91	=91	=91	=91	=91	=91	=91	=91	=91	=91	=91	=91	=91	=91
4.BB 4.BBB/	(>8F#L 8D#\	.	2r	2r	.	8D#\	.	.	oj-	8F#/	.	Oj-	oj-	2r	.	.	.	2r	.	.	.
.	8BJ 8G#\	.	.	.	.	8G#\	.	.	-czy-	8B\	.	-czyz-	-czy-	.	.	.	.	.	.	.	.
.	8.AL 8.F#\)	.	.	.	.	8.F#\	.	.	-zno	8.A/	.	-no	-zno	.	.	.	.	.	.	.	.
8BB 8BBB/	.	.	.	.	.	.	.	.	.	.	.	.	.	.	.	.	.	.	.	.	.
.	16c#Jk 16A'\	.	.	.	.	16A\	.	.	ko-	16c#\	.	ko-	ko-	.	.	.	.	.	.	.	.
=92	=92	=92	=92	=92	=92	=92	=92	=92	=92	=92	=92	=92	=92	=92	=92	=92	=92	=92	=92	=92	=92
4BB 4EE/	8c# 8A\	.	8r	8r	.	8A\	.	.	-cha-	8c#\	.	-cha-	-cha-	2r	.	.	.	2r	.	.	.
.	4B 4G#^>\	.	(<16g#/LL	(>16gg#\LL	f	4G#\	.	.	-na!	4B\	.	-na!"	-na!	.	.	.	.	.	.	.	.
.	.	.	16f#/JJ	16ff#\JJ	.	.	.	.	.	.	.	.	.	.	.	.	.	.	.	.	.
!	!	!	!	!	!LO:MO:null:mod=.	!	!	!	!	!	!	!	!	!	!	!	!	!	!	!	!
4r	.	.	8e/L)	8ee\L)	<	.	.	.	.	.	.	.	.	.	.	.	.	.	.	.	.
.	8r	.	8g#'/J	8gg#'\J	.	8r	.	.	.	8r	.	.	.	.	.	.	.	.	.	.	.
=93	=93	=93	=93	=93	=93	=93	=93	=93	=93	=93	=93	=93	=93	=93	=93	=93	=93	=93	=93	=93	=93
!	!	!	!	!	!	!	!	!	!	!	!	!	!	!	!LO:DY:rj	!	!	!	!LO:DY:a:rj	!	!
!	!	!	!	!	!LO:MO:null:mod=<	!	!LO:MO:null:mod=<	!	!	!	!LO:MO:null:mod=<	!	!	!	!	!	!	!	!	!	!
4EE/	4B 4E\	<	8.bL 8.g#/	8.bbL 8.gg#\	[	8.E\	.	.	Da-	8.B\	.	Da-	Da-	8.g#/	f	.	Da-	8.b\	f	Da-	Da-
!	!	!	!	!	!	!	!	!	!	!	!	!	!	!	!LO:MO:mod=!null:null	!	!	!	!	!	!
!	!	!	!	!	!	!	!	!	!	!	!	!	!	!	!LO:HP:b	!	!	!	!	!	!
!	!	!	!	!	!	!	!	!	!	!	!	!	!	!	!	!	!	!	!LO:MO:null:mod=<	!	!
.	.	.	16a#XJk 16f##X/	16aa#XJk 16ff##X\	.	16E\	.	.	-na,	16B\	.	-na,	-na,	16f##X/	<	.	-na,	16a#X/	.	-na,	-na,
!	!	!	!	!	!	!	!LO:MO:mod=!null:null	!	!	!	!	!	!	!	!	!	!	!	!	!	!
!	!	!	!	!	!	!	!	!	!	!	!LO:MO:mod=!null:null	!	!	!	!	!	!	!	!	!	!
!	!	!	!	!	!	!	!	!	!	!	!	!	!	!	!	!	!	!	!LO:MO:mod=!null:null	!	!
!	!	!	!	!	!	!	!LO:HP:b	!	!	!	!LO:HP:b	!	!	!	!	!	!	!	!LO:HP:b	!	!
!	!	!	!	!	!	!	!LO:MO:null:mod=.	!	!	!	!LO:MO:null:mod=.	!	!	!	!	!	!	!	!LO:MO:null:mod=.	!	!
8EE/L	8BL 8E\	.	8bL 8g#/	8bbL 8gg#\	.	8E\	<	.	hej,	8e\	<	hej,	hej,	8g#/	.	.	hej,	8b\	<	hej,	hej,
!	!	!LO:MO:null:mod=[[	!	!	!LO:MO:null:mod=[[	!	!LO:MO:null:mod=[[	!	!	!	!LO:MO:null:mod=[[	!	!	!	!LO:MO:null:mod=[[	!	!	!	!LO:MO:null:mod=[[	!	!
8GG#J 8GGG#/	8eJ 8B 8E\	[	8eeJ 8b 8g#/	8eeeJ 8gg#\	.	8G#\	[	.	[ta]	8e\	[	ta	ta	8b\	[	.	ta	8ee\	[	ta	ta
=94	=94	=94	=94	=94	=94	=94	=94	=94	=94	=94	=94	=94	=94	=94	=94	=94	=94	=94	=94	=94	=94
*tremolo	*	*	*	*8va	*	*	*	*	*	*	*	*	*	*	*	*	*	*	*	*	*
!	!	!LO:DY:rj	!	!	!LO:DY:rj	!	!LO:DY:b:rj	!	!	!	!LO:DY:b:rj	!	!	!	!LO:DY:b:rj	!	!	!	!LO:DY:b:rj	!	!
32FFF#/LLL	2e 2c# 2A#X 2E^^>\	ff	2gg# 2ee 2cc# 2a#X^^>\	2ggg# 2eee 2ccc# 2aa#X^^>\	ff	2F#\	ff	.	da-	2e\	ff	da-	da-	2a#X/	ff	.	da-	2gg#\	ff	da-	da-
32FF#/	.	.	.	.	.	.	.	.	.	.	.	.	.	.	.	.	.	.	.	.	.
32FFF#/	.	.	.	.	.	.	.	.	.	.	.	.	.	.	.	.	.	.	.	.	.
32FF#/	.	.	.	.	.	.	.	.	.	.	.	.	.	.	.	.	.	.	.	.	.
32FFF#/	.	.	.	.	.	.	.	.	.	.	.	.	.	.	.	.	.	.	.	.	.
32FF#/	.	.	.	.	.	.	.	.	.	.	.	.	.	.	.	.	.	.	.	.	.
32FFF#/	.	.	.	.	.	.	.	.	.	.	.	.	.	.	.	.	.	.	.	.	.
32FF#/	.	.	.	.	.	.	.	.	.	.	.	.	.	.	.	.	.	.	.	.	.
32FFF#/	.	.	.	.	.	.	.	.	.	.	.	.	.	.	.	.	.	.	.	.	.
32FF#/	.	.	.	.	.	.	.	.	.	.	.	.	.	.	.	.	.	.	.	.	.
32FFF#/	.	.	.	.	.	.	.	.	.	.	.	.	.	.	.	.	.	.	.	.	.
32FF#/	.	.	.	.	.	.	.	.	.	.	.	.	.	.	.	.	.	.	.	.	.
32FFF#/	.	.	.	.	.	.	.	.	.	.	.	.	.	.	.	.	.	.	.	.	.
32FF#/	.	.	.	.	.	.	.	.	.	.	.	.	.	.	.	.	.	.	.	.	.
32FFF#/	.	.	.	.	.	.	.	.	.	.	.	.	.	.	.	.	.	.	.	.	.
32FF#/JJJ	.	.	.	.	.	.	.	.	.	.	.	.	.	.	.	.	.	.	.	.	.
*	*	*	*	*X8va	*	*	*	*	*	*	*	*	*	*	*	*	*	*	*	*	*
=95	=95	=95	=95	=95	=95	=95	=95	=95	=95	=95	=95	=95	=95	=95	=95	=95	=95	=95	=95	=95	=95
32FFF#/LLL	[>2e [>2c# [<2A#X [<2E^^>\	.	[>2cc# [<2a#X^^>/	[>2ccc# [>2aa#X [<2ee^^>\	.	[>2F#\	.	.	-na,	[>2e\	.	-na,	-na,	[<2a#X/	.	.	-na,	[>2cc#\	.	-na,	-na,
32FF#/	.	.	.	.	.	.	.	.	.	.	.	.	.	.	.	.	.	.	.	.	.
32FFF#/	.	.	.	.	.	.	.	.	.	.	.	.	.	.	.	.	.	.	.	.	.
32FF#/	.	.	.	.	.	.	.	.	.	.	.	.	.	.	.	.	.	.	.	.	.
32FFF#/	.	.	.	.	.	.	.	.	.	.	.	.	.	.	.	.	.	.	.	.	.
32FF#/	.	.	.	.	.	.	.	.	.	.	.	.	.	.	.	.	.	.	.	.	.
32FFF#/	.	.	.	.	.	.	.	.	.	.	.	.	.	.	.	.	.	.	.	.	.
32FF#/	.	.	.	.	.	.	.	.	.	.	.	.	.	.	.	.	.	.	.	.	.
32FFF#/	.	.	.	.	.	.	.	.	.	.	.	.	.	.	.	.	.	.	.	.	.
32FF#/	.	.	.	.	.	.	.	.	.	.	.	.	.	.	.	.	.	.	.	.	.
32FFF#/	.	.	.	.	.	.	.	.	.	.	.	.	.	.	.	.	.	.	.	.	.
32FF#/	.	.	.	.	.	.	.	.	.	.	.	.	.	.	.	.	.	.	.	.	.
32FFF#/	.	.	.	.	.	.	.	.	.	.	.	.	.	.	.	.	.	.	.	.	.
32FF#/	.	.	.	.	.	.	.	.	.	.	.	.	.	.	.	.	.	.	.	.	.
32FFF#/	.	.	.	.	.	.	.	.	.	.	.	.	.	.	.	.	.	.	.	.	.
32FF#/JJJ	.	.	.	.	.	.	.	.	.	.	.	.	.	.	.	.	.	.	.	.	.
*Xtremolo	*	*	*	*	*	*	*	*	*	*	*	*	*	*	*	*	*	*	*	*	*
!!LO:LB:g=original
=96	=96	=96	=96	=96	=96	=96	=96	=96	=96	=96	=96	=96	=96	=96	=96	=96	=96	=96	=96	=96	=96
4FFF#/	4e] 4c#] 4A#] 4E\]	.	4cc#] 4a#/]	4ccc#] 4aa#] 4ee\]	.	4F#\]	.	.	.	4e\]	.	.	.	4a#/]	.	.	.	4cc#\]	.	.	.
8r;>	8r;>	.	8r;>	8r;>	.	8r;>	.	.	.	8r;>	.	.	.	8r;>	.	.	.	8r;>	.	.	.
8FF# 8FFF#/	8c# 8A#X 8E\	.	8cc# 8a#X/	8ccc# 8aa#X\	.	8F#\	.	.	[oj-	8e\	.	.	[oj-	8a#X/	.	Oj-	oj-	8cc#\	.	.	[oj-
=97	=97	=97	=97	=97	=97	=97	=97	=97	=97	=97	=97	=97	=97	=97	=97	=97	=97	=97	=97	=97	=97
4.FF# 4.FFF#^^>/	4.c# 4.A#X 4.E^^>\	.	4ee 4a#X^^>\	4eee 4aa#X^^>\	.	4F#\	.	.	-czy-	4c#\	.	.	-czy-	4a#X/	.	-czyz-	-czy-	4ee\	.	.	-czy-
.	.	.	8dd#L 8a#\	8ddd#L 8aa#\	.	8F#\	.	.	-zno	8f#\	.	.	-zno	8a#/	.	-no	-zno	8dd#\	.	.	-zno
8FF#/	8c# 8A# 8E\	.	8eeJ 8a#\	8eeeJ 8aa#\	.	8F#\	.	.	ko-	8c#\	.	.	ko-	8a#/	.	ko-	ko-	8ee\	.	.	ko-
!!LO:LB:g=original
=98	=98	=98	=98	=98	=98	=98	=98	=98	=98	=98	=98	=98	=98	=98	=98	=98	=98	=98	=98	=98	=98
*tremolo	*	*	*	*	*	*	*	*	*	*	*	*	*	*	*	*	*	*	*	*	*
32BBB/LLL	2c# 2B^^>\	.	2ff# 2an^^>/	2fff# 2aan^^>\	.	[>2B\	.	.	-cha-	(>2c#\	.	.	-cha-	[<2an/	.	-cha-	-cha-	(>2ff#\	.	.	-cha-
32BB/	.	.	.	.	.	.	.	.	.	.	.	.	.	.	.	.	.	.	.	.	.
32BBB/	.	.	.	.	.	.	.	.	.	.	.	.	.	.	.	.	.	.	.	.	.
32BB/	.	.	.	.	.	.	.	.	.	.	.	.	.	.	.	.	.	.	.	.	.
32BBB/	.	.	.	.	.	.	.	.	.	.	.	.	.	.	.	.	.	.	.	.	.
32BB/	.	.	.	.	.	.	.	.	.	.	.	.	.	.	.	.	.	.	.	.	.
32BBB/	.	.	.	.	.	.	.	.	.	.	.	.	.	.	.	.	.	.	.	.	.
32BB/	.	.	.	.	.	.	.	.	.	.	.	.	.	.	.	.	.	.	.	.	.
32BBB/	.	.	.	.	.	.	.	.	.	.	.	.	.	.	.	.	.	.	.	.	.
32BB/	.	.	.	.	.	.	.	.	.	.	.	.	.	.	.	.	.	.	.	.	.
32BBB/	.	.	.	.	.	.	.	.	.	.	.	.	.	.	.	.	.	.	.	.	.
32BB/	.	.	.	.	.	.	.	.	.	.	.	.	.	.	.	.	.	.	.	.	.
32BBB/	.	.	.	.	.	.	.	.	.	.	.	.	.	.	.	.	.	.	.	.	.
32BB/	.	.	.	.	.	.	.	.	.	.	.	.	.	.	.	.	.	.	.	.	.
32BBB/	.	.	.	.	.	.	.	.	.	.	.	.	.	.	.	.	.	.	.	.	.
32BB/JJJ	.	.	.	.	.	.	.	.	.	.	.	.	.	.	.	.	.	.	.	.	.
=99	=99	=99	=99	=99	=99	=99	=99	=99	=99	=99	=99	=99	=99	=99	=99	=99	=99	=99	=99	=99	=99
32BBB/LLL	2e 2B^^>\	.	2cc# 2a^^>/	2ccc# 2aa 2ee^^>\	.	2B\_>	.	.	.	2e\	.	.	.	2a/_<	.	.	.	2cc#\	.	.	.
32BB/	.	.	.	.	.	.	.	.	.	.	.	.	.	.	.	.	.	.	.	.	.
32BBB/	.	.	.	.	.	.	.	.	.	.	.	.	.	.	.	.	.	.	.	.	.
32BB/	.	.	.	.	.	.	.	.	.	.	.	.	.	.	.	.	.	.	.	.	.
32BBB/	.	.	.	.	.	.	.	.	.	.	.	.	.	.	.	.	.	.	.	.	.
32BB/	.	.	.	.	.	.	.	.	.	.	.	.	.	.	.	.	.	.	.	.	.
32BBB/	.	.	.	.	.	.	.	.	.	.	.	.	.	.	.	.	.	.	.	.	.
32BB/	.	.	.	.	.	.	.	.	.	.	.	.	.	.	.	.	.	.	.	.	.
32BBB/	.	.	.	.	.	.	.	.	.	.	.	.	.	.	.	.	.	.	.	.	.
32BB/	.	.	.	.	.	.	.	.	.	.	.	.	.	.	.	.	.	.	.	.	.
32BBB/	.	.	.	.	.	.	.	.	.	.	.	.	.	.	.	.	.	.	.	.	.
32BB/	.	.	.	.	.	.	.	.	.	.	.	.	.	.	.	.	.	.	.	.	.
32BBB/	.	.	.	.	.	.	.	.	.	.	.	.	.	.	.	.	.	.	.	.	.
32BB/	.	.	.	.	.	.	.	.	.	.	.	.	.	.	.	.	.	.	.	.	.
32BBB/	.	.	.	.	.	.	.	.	.	.	.	.	.	.	.	.	.	.	.	.	.
32BB/JJJ	.	.	.	.	.	.	.	.	.	.	.	.	.	.	.	.	.	.	.	.	.
=100	=100	=100	=100	=100	=100	=100	=100	=100	=100	=100	=100	=100	=100	=100	=100	=100	=100	=100	=100	=100	=100
32BBB/LLL	2f# 2d# 2A 2F#^^>\	.	2dd# 2a^^>/	2ddd# 2aa 2ff#^^>\	.	2B\]	.	.	.	2f#\)	.	.	.	2a/]	.	.	.	2dd#\)	.	.	.
32BB/	.	.	.	.	.	.	.	.	.	.	.	.	.	.	.	.	.	.	.	.	.
32BBB/	.	.	.	.	.	.	.	.	.	.	.	.	.	.	.	.	.	.	.	.	.
32BB/	.	.	.	.	.	.	.	.	.	.	.	.	.	.	.	.	.	.	.	.	.
32BBB/	.	.	.	.	.	.	.	.	.	.	.	.	.	.	.	.	.	.	.	.	.
32BB/	.	.	.	.	.	.	.	.	.	.	.	.	.	.	.	.	.	.	.	.	.
32BBB/	.	.	.	.	.	.	.	.	.	.	.	.	.	.	.	.	.	.	.	.	.
32BB/	.	.	.	.	.	.	.	.	.	.	.	.	.	.	.	.	.	.	.	.	.
32BBB/	.	.	.	.	.	.	.	.	.	.	.	.	.	.	.	.	.	.	.	.	.
32BB/	.	.	.	.	.	.	.	.	.	.	.	.	.	.	.	.	.	.	.	.	.
32BBB/	.	.	.	.	.	.	.	.	.	.	.	.	.	.	.	.	.	.	.	.	.
32BB/	.	.	.	.	.	.	.	.	.	.	.	.	.	.	.	.	.	.	.	.	.
32BBB/	.	.	.	.	.	.	.	.	.	.	.	.	.	.	.	.	.	.	.	.	.
32BB/	.	.	.	.	.	.	.	.	.	.	.	.	.	.	.	.	.	.	.	.	.
32BBB/	.	.	.	.	.	.	.	.	.	.	.	.	.	.	.	.	.	.	.	.	.
32BB/JJJ	.	.	.	.	.	.	.	.	.	.	.	.	.	.	.	.	.	.	.	.	.
*Xtremolo	*	*	*	*	*	*	*	*	*	*	*	*	*	*	*	*	*	*	*	*	*
=101||	=101||	=101||	=101||	=101||	=101||	=101||	=101||	=101||	=101||	=101||	=101||	=101||	=101||	=101||	=101||	=101||	=101||	=101||	=101||	=101||	=101||
!!!OMD:
!!!OMD-mod: Tempo primo
!	!	!	!	!	!	!	!	!	!	!	!	!	!	!	!	!	!	!LO:TX:a:i:t=Tempo Io:mod=	!	!	!
8BBL 8EE^^>/	8eL 8B 8G# 8E^^>\	.	8ee 8b 8g#^^>/	8eee 8bb 8gg#^^>\	.	4E\	.	.	-na!	4e\	.	.	-na!	4g#/	.	-na!"	-na!	4ee\	.	.	-na!
!	!LO:TX:a:i:t=Tempo Io:mod=	!LO:DY:t=sempre f	!	!LO:TX:a:i:t=Tempo Io:mod=	!	!	!	!	!	!	!	!	!	!	!	!	!	!	!	!	!
8BB 8EE/	8B 8G# 8E\	f	8r	8r	.	.	.	.	.	.	.	.	.	.	.	.	.	.	.	.	.
8BB 8EE/	8B 8G# 8E\	.	4r	4r	.	4r	.	.	.	4r	.	.	.	4r	.	.	.	4r	.	.	.
8BBJ 8EE/	8BJ 8G# 8E\	.	.	.	.	.	.	.	.	.	.	.	.	.	.	.	.	.	.	.	.
=102	=102	=102	=102	=102	=102	=102	=102	=102	=102	=102	=102	=102	=102	=102	=102	=102	=102	=102	=102	=102	=102
8BBL 8EE/	8BL 8G# 8E\	.	8b 8g# 8e^^>/	8eee 8bb 8gg# 8ee^^>\	.	2r	.	.	.	2r	.	.	.	2r	.	.	.	2r	.	.	.
8BB 8EE/	8B 8G# 8E\	.	8r	8r	.	.	.	.	.	.	.	.	.	.	.	.	.	.	.	.	.
8BB 8EE/	8B 8G# 8E\	.	4r	4r	.	.	.	.	.	.	.	.	.	.	.	.	.	.	.	.	.
8BBJ 8EE/	8BJ 8G# 8E\	.	.	.	.	.	.	.	.	.	.	.	.	.	.	.	.	.	.	.	.
!!LO:LB:g=original
=103	=103	=103	=103	=103	=103	=103	=103	=103	=103	=103	=103	=103	=103	=103	=103	=103	=103	=103	=103	=103	=103
!	!	!	!	!	!LO:DY:i:t=sempre f	!	!LO:DY:a:rj	!	!	!	!LO:DY:rj	!	!	!	!LO:DY:rj	!	!	!	!LO:DY:rj	!	!
8BBL 8EE^^>/	8d#L 8A 8F#^^>\	.	4.dd#^^\	4.ddd#^^\	f	8F#\	f	.	Da-	8F#/	f	.	Da-	8f#/	f	Da-	Da-	8f#/	f	.	Da-
8BB 8EE/	8d# 8A 8F#\	.	.	.	.	(>16G#\LL	.	.	-na,	(<16G#/LL	.	.	-na,	(<16g#/LL	.	-na,	-na,	(<16g#/LL	.	.	-na,
.	.	.	.	.	.	16A\JJ)	.	.	.	16A/JJ)	.	.	.	16a/JJ)	.	.	.	16a/JJ)	.	.	.
8BB 8EE/	8d# 8A 8F#\	.	.	.	.	8B\	.	.	hej	8B\	.	.	hej	8b\	.	hej	hej	8b\	.	.	hej
8BBJ 8EE/	8c#J 8A 8D#\	.	(<16cc#/LL	(>16ccc#\LL	.	8c#\	.	.	ta	8c#\	.	.	ta	8cc#\	.	ta	ta	8cc#\	.	.	ta
.	.	.	16a/JJ	16aa\JJ	.	.	.	.	.	.	.	.	.	.	.	.	.	.	.	.	.
=104	=104	=104	=104	=104	=104	=104	=104	=104	=104	=104	=104	=104	=104	=104	=104	=104	=104	=104	=104	=104	=104
8BBL 8EE/	8BL 8G# 8E\	.	16g#/LL	16gg#\LL	.	(>16d#\LL	.	.	da-	(>16d#\LL	.	.	da-	(>16dd#\LL	.	da-	da-	(>16dd#\LL	.	.	da-
.	.	.	16a/	16aa\	.	16c#\JJ)	.	.	.	16c#\JJ)	.	.	.	16cc#\JJ)	.	.	.	16cc#\JJ)	.	.	.
8BB 8EE/	8B 8G# 8E\	.	16g#/	16gg#\	.	4B\	.	.	-na,	4B\	.	.	-na,	4b\	.	-na	-na,	4b\	.	.	-na,
.	.	.	16f#/JJ	16ff#\JJ	.	.	.	.	.	.	.	.	.	.	.	.	.	.	.	.	.
8BB 8EE/	8B 8G# 8E\	.	8e/L)	8ee\L)	.	.	.	.	.	.	.	.	.	.	.	.	.	.	.	.	.
8BBJ 8EE/	8BJ 8G# 8E\	.	8b'/J	8bb'\J	.	8G#\	.	.	oj-	8G#/	.	.	oj-	8g#/	.	Oj-	oj-	8g#/	.	.	oj-
=105	=105	=105	=105	=105	=105	=105	=105	=105	=105	=105	=105	=105	=105	=105	=105	=105	=105	=105	=105	=105	=105
8AAL 8EE^^>/	8c#L 8A 8E^^>\	.	4.cc#^^>\	4.ccc#^^>\	.	4A\	.	.	-czy-	4A/	.	.	-czy-	4a/	.	-czyz-	-czy-	4a/	.	.	-czy-
8AA 8EE/	8c# 8A 8E\	.	.	.	.	.	.	.	.	.	.	.	.	.	.	.	.	.	.	.	.
8BB 8EE/	8c# 8A 8D#\	.	.	.	.	8C#/	.	.	-zno	8C#/	.	.	-zno	8c#/	.	-no	-zno	8c#/	.	.	-zno
8BBJ 8EE/	8c#J 8A 8D#\	.	(<16b/LL	(>16bb\LL	.	8D#\	.	.	ko-	8D#/	.	.	ko-	8d#/	.	ko-	ko-	8d#/	.	.	ko-
.	.	.	16a/JJ	16aa\JJ	.	.	.	.	.	.	.	.	.	.	.	.	.	.	.	.	.
!!LO:PB:g=original
=106	=106	=106	=106	=106	=106	=106	=106	=106	=106	=106	=106	=106	=106	=106	=106	=106	=106	=106	=106	=106	=106
8BBL 8EE/	8BL 8G# 8E\	.	16g#/LL	16gg#\LL	.	(>16E\LL	.	.	-cha-	(<16E/LL	.	.	-cha-	(<16e/LL	.	-cha-	-cha-	(<16e/LL	.	.	-cha-
.	.	.	16f#/JJ	16ff#\	.	16F#\JJ)	.	.	.	16F#/JJ)	.	.	.	16f#/JJ)	.	.	.	16f#/JJ)	.	.	.
8BB 8EE/	8B 8G# 8E\	.	4e/)	16ee\	.	4G#\	.	.	-na!	4G#/	.	.	-na!]	4g#/	.	-na!	-na!	4g#/	.	.	-na!]
.	.	.	.	16cc#\JJ	.	.	.	.	.	.	.	.	.	.	.	.	.	.	.	.	.
8BB 8EE/	8B 8G# 8E\	.	.	8b\L)	.	.	.	.	.	.	.	.	.	.	.	.	.	.	.	.	.
8BBJ 8EE/	8BJ 8G# 8E\	.	8e'/	8ee'\J	.	8r	.	.	.	8r	.	.	.	8r	.	.	.	8r	.	.	.
=107	=107	=107	=107	=107	=107	=107	=107	=107	=107	=107	=107	=107	=107	=107	=107	=107	=107	=107	=107	=107	=107
8BBL 8EE^^>/	8d#L 8A 8F#^^>\	.	4.f#^>/	4.ff#^>\	.	2r	.	.	.	8A/	.	Da-	Da-	2r	.	.	.	8a/	.	Da-	Da-
8BB 8EE/	8d# 8A 8F#\	.	.	.	.	.	.	.	.	(>16B\LL	.	-na,	-na,	.	.	.	.	(>16b\LL	.	-na,	-na,
.	.	.	.	.	.	.	.	.	.	16c#\JJ)	.	.	.	.	.	.	.	16cc#\JJ)	.	.	.
8BB 8EE/	8d# 8B 8A 8F#\	.	.	.	.	.	.	.	.	8d#\	.	hej,	hej,	.	.	.	.	8dd#\	.	hej,	hej,
8BBJ 8EE/	8d#J 8B 8A 8F#\	.	(<16b/LL	(>16bb\LL	.	.	.	.	.	8e\	.	ta	ta	.	.	.	.	8ee\	.	ta	ta
.	.	.	16a/JJ	16aa\JJ	.	.	.	.	.	.	.	.	.	.	.	.	.	.	.	.	.
=108	=108	=108	=108	=108	=108	=108	=108	=108	=108	=108	=108	=108	=108	=108	=108	=108	=108	=108	=108	=108	=108
8BBL 8EE/	8eL 8B 8G# 8E\	.	8g#/)	8gg#\)	.	4r	.	.	.	(>16f#\LL	.	da-	da-	4r	.	.	.	(>16ff#\LL	.	da-	da-
.	.	.	.	.	.	.	.	.	.	16e\JJ)	.	.	.	.	.	.	.	16ee\JJ)	.	.	.
8BB 8EE/	8d# 8B 8G# 8E\	.	4b 4g#^^>/	4bb 4gg# 4dd#^^>\	.	.	.	.	.	4d#\	.	-na	-na	.	.	.	.	4dd#\	.	-na	-na,
8BB 8EE/	8d# 8B 8G# 8E\	.	.	.	.	8r	.	.	.	.	.	.	.	8r	.	.	.	.	.	.	.
!	!	!	!	!	!	!	!LO:DY:b:rj	!	!	!	!	!	!	!	!LO:DY:rj	!	!	!	!	!	!
!	!	!	!	!	!	!	!	!	!	!	!LO:DY:t= :mod=%s	!	!	!	!	!	!	!	!	!	!
!	!	!	!	!	!	!	!	!	!	!	!LO:MO:mod=!LO&colon;DY&colon;ed=brack	!	!	!	!	!	!	!LO:DY:t= :mod=%s	!LO:MO:mod=!LO&colon;DY&colon;ed=brack	!	!
!	!	!	!	!	!	!	!	!	!	!	!null	!	!	!	!	!	!	!	!null	!	!
8BBJ 8EE/	8d#J 8B 8G# 8E\	.	8b\	8bb\	.	8B\	f	.	oj-	8B\	f	.	[oj-	8b\	f	Oj-	oj-	8b\	f	.	[oj-
=109	=109	=109	=109	=109	=109	=109	=109	=109	=109	=109	=109	=109	=109	=109	=109	=109	=109	=109	=109	=109	=109
8BBL 8EE/	8c#L 8B 8G# 8E\	.	4cc#\	4ccc#\	.	4c#\	.	.	-czy-	4c#\	.	.	-czy-	4cc#\	.	-czyz-	-czy-	4cc#\	.	.	-czy-
8BB 8EE/	8c# 8B 8G# 8E\	.	.	.	.	.	.	.	.	.	.	.	.	.	.	.	.	.	.	.	.
8BB 8EE/	8c# 8A 8F# 8E\	.	8a/L	8aa\L	.	8A\	.	.	-zno	8A/	.	.	-zno	8a/	.	-no	-zno	8a/	.	.	-zno
8BBJ 8EE/	8BJ 8G# 8E\	.	8bJ 8g# 8e/	8bbJ 8gg# 8ee\	.	8E\	.	.	ko-	8e\	.	.	ko-	8g#/	.	ko-	ko-	8b/	.	.	ko-
=110	=110	=110	=110	=110	=110	=110	=110	=110	=110	=110	=110	=110	=110	=110	=110	=110	=110	=110	=110	=110	=110
!	!	!	!	!	!	!	!	!	!	!LO:SIC:s=([>2e\:v	!	!	!	!	!	!	!	!	!	!	!
8AAL 8AAA/	8c#L 8A 8E\	.	2cc# 2a 2e^^>/	2ccc# 2aa 2ee^^>\	.	(>2A\	.	.	-cha-	[>2e\	.	.	-cha-	[2a/	.	-cha-	-cha-	(>2cc#\	.	.	-cha-
8AA 8AAA/	8c# 8A 8E\	.	.	.	.	.	.	.	.	.	.	.	.	.	.	.	.	.	.	.	.
8AA 8AAA/	8c# 8A 8E\	.	.	.	.	.	.	.	.	.	.	.	.	.	.	.	.	.	.	.	.
8AAJ 8AAA/	8c#J 8A 8E\	.	.	.	.	.	.	.	.	.	.	.	.	.	.	.	.	.	.	.	.
=111	=111	=111	=111	=111	=111	=111	=111	=111	=111	=111	=111	=111	=111	=111	=111	=111	=111	=111	=111	=111	=111
!	!	!	!	!	!	!	!	!	!	!LO:SIC:s=2e\]:v	!	!	!	!	!	!	!	!	!	!	!
4FF# 4FFF#^^>/	4e 4A 4E^^>\	.	4gg# 4cc# 4a^^>\	4ggg# 4ccc# 4aa^^>\	.	2F#\	.	.	.	(>2e\]	.	.	.	2a/_	.	.	.	2gg#\	.	.	.
4r	4r	.	(>16f#/LL	(>16ff#\LL	.	.	.	.	.	.	.	.	.	.	.	.	.	.	.	.	.
.	.	.	16g#/	16gg#\	.	.	.	.	.	.	.	.	.	.	.	.	.	.	.	.	.
.	.	.	16a/	16aa\	.	.	.	.	.	.	.	.	.	.	.	.	.	.	.	.	.
.	.	.	16cc#/JJ	16ccc#\JJ	.	.	.	.	.	.	.	.	.	.	.	.	.	.	.	.	.
=112	=112	=112	=112	=112	=112	=112	=112	=112	=112	=112	=112	=112	=112	=112	=112	=112	=112	=112	=112	=112	=112
*	*	*	*	*8va	*	*	*	*	*	*	*	*	*	*	*	*	*	*	*	*	*
4BB 4BBB^^>/	4d# 4B 4A 4D#^^>\	.	8ff#\L)	8fff#\L)	.	2B\)	.	.	.	2d#\)	.	.	.	2a/]	.	.	.	2ff#\)	.	.	.
.	.	.	(>16ff#\L	(>16fff#\L	.	.	.	.	.	.	.	.	.	.	.	.	.	.	.	.	.
.	.	.	16gg#\JJ	16ggg#\JJ	.	.	.	.	.	.	.	.	.	.	.	.	.	.	.	.	.
4r	4r	.	16aa\LL	16aaa\LL	.	.	.	.	.	.	.	.	.	.	.	.	.	.	.	.	.
.	.	.	16bb\	16bbb\	.	.	.	.	.	.	.	.	.	.	.	.	.	.	.	.	.
.	.	.	16ccc#\	16cccc#\	.	.	.	.	.	.	.	.	.	.	.	.	.	.	.	.	.
.	.	.	16ddd#\JJ	16dddd#\JJ	.	.	.	.	.	.	.	.	.	.	.	.	.	.	.	.	.
!!LO:LB:g=original
=113	=113	=113	=113	=113	=113	=113	=113	=113	=113	=113	=113	=113	=113	=113	=113	=113	=113	=113	=113	=113	=113
8EEL 8BBB 8EEE/	8eL 8B 8G# 8E\	sfz	8eee\)	8eeee\)	.	[>2B [<2E\	.	.	-na!]	[>2e\	.	.	-na!]	[<2g#/	.	-na!"	-na!	[>2ee\	.	.	-na!]
8BB 8EE/	8B 8G# 8E\	.	8r	8r	.	.	.	.	.	.	.	.	.	.	.	.	.	.	.	.	.
8BB 8EE/	8B 8G# 8E\	.	4r	4r	.	.	.	.	.	.	.	.	.	.	.	.	.	.	.	.	.
8BBJ 8EE/	8BJ 8G# 8E\	.	.	.	.	.	.	.	.	.	.	.	.	.	.	.	.	.	.	.	.
=114	=114	=114	=114	=114	=114	=114	=114	=114	=114	=114	=114	=114	=114	=114	=114	=114	=114	=114	=114	=114	=114
*rep	*rep	*	*	*	*	*	*	*	*	*	*	*	*	*	*	*	*	*	*	*	*
!	!	!LO:MO:mod=sfz	!	!	!	!	!	!	!	!	!	!	!	!	!	!	!	!	!	!	!
8EEL 8BBB 8EEE/	8eL 8B 8G# 8E\	sfzy	8gg# 8ee 8b 8g#\	8eeee 8bbb 8ggg# 8eee\	sfz	2B_> 2E\_<	.	.	.	2e\_>	.	.	.	2g#/_<	.	.	.	2ee\_>	.	.	.
8BB 8EE/	8B 8G# 8E\	.	8r	8r	.	.	.	.	.	.	.	.	.	.	.	.	.	.	.	.	.
8BB 8EE/	8B 8G# 8E\	.	4r	4r	.	.	.	.	.	.	.	.	.	.	.	.	.	.	.	.	.
8BBJ 8EE/	8BJ 8G# 8E\	.	.	.	.	.	.	.	.	.	.	.	.	.	.	.	.	.	.	.	.
*Xrep	*Xrep	*	*	*	*	*	*	*	*	*	*	*	*	*	*	*	*	*	*	*	*
=115	=115	=115	=115	=115	=115	=115	=115	=115	=115	=115	=115	=115	=115	=115	=115	=115	=115	=115	=115	=115	=115
8BBL 8EE/	8BL 8G# 8E\	.	4gg# 4ee 4b 4g#^^>\	4bbb 4ggg# 4eee 4bb^^>\	.	4B] 4E\]	.	.	.	4e\]	.	.	.	4g#/]	.	.	.	4ee\]	.	.	.
8BB 8EE/	8B 8G# 8E\	.	.	.	.	.	.	.	.	.	.	.	.	.	.	.	.	.	.	.	.
8BB 8EE/	8B 8G# 8E\	.	8r	8r	.	4r	.	.	.	4r	.	.	.	4r	.	.	.	4r	.	.	.
8BBJ 8EE/	8BJ 8G# 8E\	.	(>16aa\LL	(>16aaa\LL	.	.	.	.	.	.	.	.	.	.	.	.	.	.	.	.	.
.	.	.	16gg#\JJ	16ggg#\JJ	.	.	.	.	.	.	.	.	.	.	.	.	.	.	.	.	.
=116	=116	=116	=116	=116	=116	=116	=116	=116	=116	=116	=116	=116	=116	=116	=116	=116	=116	=116	=116	=116	=116
8BBL 8EE/	8d#L 8A 8F#\	.	8ff#\)	8fff#\)	.	2r	.	.	.	2r	.	.	.	2r	.	.	.	2r	.	.	.
8BB 8EE^^>/	8d# 8A 8F#^^>\	.	4ccc#^^>\	4cccc#^^>\	.	.	.	.	.	.	.	.	.	.	.	.	.	.	.	.	.
8BB 8EE/	8c# 8A 8E\	.	.	.	.	.	.	.	.	.	.	.	.	.	.	.	.	.	.	.	.
8BBJ 8EE/	8d#J 8A 8F#\	.	16bb\LL	(>16bbb\LL	.	.	.	.	.	.	.	.	.	.	.	.	.	.	.	.	.
.	.	.	16aa\JJ	16aaa\JJ	.	.	.	.	.	.	.	.	.	.	.	.	.	.	.	.	.
=117	=117	=117	=117	=117	=117	=117	=117	=117	=117	=117	=117	=117	=117	=117	=117	=117	=117	=117	=117	=117	=117
4BB 4EE/	4e 4B 4G#\	.	16gg#\LL	16ggg#\LL	.	2r	.	.	.	2r	.	.	.	2r	.	.	.	2r	.	.	.
.	.	.	16ff#\	16fff#\	.	.	.	.	.	.	.	.	.	.	.	.	.	.	.	.	.
.	.	.	16ee\	16eee\	.	.	.	.	.	.	.	.	.	.	.	.	.	.	.	.	.
.	.	.	16ff#\JJ	16fff#\JJ)	.	.	.	.	.	.	.	.	.	.	.	.	.	.	.	.	.
8r	8r	.	8gg#\L	8ggg#'\L	.	.	.	.	.	.	.	.	.	.	.	.	.	.	.	.	.
8C# 8CC#^^>/	8e 8A 8E^^>\	.	8aaJ 8ee 8cc#^^>\	8aaaJ 8eee^^>\	.	.	.	.	.	.	.	.	.	.	.	.	.	.	.	.	.
=118	=118	=118	=118	=118	=118	=118	=118	=118	=118	=118	=118	=118	=118	=118	=118	=118	=118	=118	=118	=118	=118
!	!	!	!	!LO:SIC:s=16bbbLL 16eee^^>\:v	!	!	!	!	!	!	!	!	!	!	!	!	!	!	!	!	!
4GG# 4GGG#^^>/	4e 4B 4E^^>\	.	8bbL 8ee 8b^^>\	(>16bbbLL 16eee^^>\	.	2r	.	.	.	2r	.	.	.	2r	.	.	.	2r	.	.	.
!	!	!	!	!LO:SIC:s=(16aaa\:v	!	!	!	!	!	!	!	!	!	!	!	!	!	!	!	!	!
.	.	.	.	16aaa\	.	.	.	.	.	.	.	.	.	.	.	.	.	.	.	.	.
.	.	.	(>16gg#\L	16ggg#\	.	.	.	.	.	.	.	.	.	.	.	.	.	.	.	.	.
!	!	!	!LO:SIC:s=16aa\JJ):v	!	!	!	!	!	!	!	!	!	!	!	!	!	!	!	!	!	!
.	.	.	16aa\JJ	16aaa\JJ)	.	.	.	.	.	.	.	.	.	.	.	.	.	.	.	.	.
!	!	!	!LO:SIC:s=8bb'\L:v	!	!	!	!	!	!	!	!	!	!	!	!	!	!	!	!	!	!
8r	8r	.	8bb\L)	8bbb'\L	.	.	.	.	.	.	.	.	.	.	.	.	.	.	.	.	.
8BB 8BBB^^>/	8d# 8B 8A 8D#^^>\	.	8bbJ 8aa 8dd#^^>\	8dddd#J 8bbb 8aaa 8ddd#^^>\	.	.	.	.	.	.	.	.	.	.	.	.	.	.	.	.	.
=119	=119	=119	=119	=119	=119	=119	=119	=119	=119	=119	=119	=119	=119	=119	=119	=119	=119	=119	=119	=119	=119
4EE 4EEE^^>/	4e 4B 4G# 4E^^>\	.	4bb 4gg# 4ee^^>\	4eeee 4bbb 4ggg# 4eee^^>\	.	2r	.	.	.	2r	.	.	.	2r	.	.	.	2r	.	.	.
4r	4r	.	4r	4r	.	.	.	.	.	.	.	.	.	.	.	.	.	.	.	.	.
=120	=120	=120	=120	=120	=120	=120	=120	=120	=120	=120	=120	=120	=120	=120	=120	=120	=120	=120	=120	=120	=120
4EE 4EEE^^>/	4e 4B 4G# 4E^^>\	.	4bb 4gg# 4ee 4b^^>\	4eeee 4bbb 4ggg# 4eee^^>\	.	2r	.	.	.	2r	.	.	.	2r	.	.	.	2r	.	.	.
4EE 4EEE^^>/	4e 4B 4G# 4E^^>\	.	4bb 4gg# 4ee 4b^^>\	4eeee 4bbb 4ggg# 4eee^^>\	.	.	.	.	.	.	.	.	.	.	.	.	.	.	.	.	.
*	*	*	*	*X8va	*	*	*	*	*	*	*	*	*	*	*	*	*	*	*	*	*
=121	=121	=121	=121	=121	=121	=121	=121	=121	=121	=121	=121	=121	=121	=121	=121	=121	=121	=121	=121	=121	=121
!LO:SIC:s=4EE 4EEE/:v	!	!	!	!	!	!	!	!	!	!	!	!	!	!	!	!	!	!	!	!	!
4EE 4EEE^^>/	4B 4G# 4E 4BB\	sfz	4b 4g# 4e/	4eee 4bb 4gg# 4ee\	sfz	2r	.	.	.	2r	.	.	.	2r	.	.	.	2r	.	.	.
4r	4r	.	4r	4r	.	.	.	.	.	.	.	.	.	.	.	.	.	.	.	.	.
!!LO:PB:g=original
==	==	==	==	==	==	==	==	==	==	==	==	==	==	==	==	==	==	==	==	==	==
*-	*-	*-	*-	*-	*-	*-	*-	*-	*-	*-	*-	*-	*-	*-	*-	*-	*-	*-	*-	*-	*-
!!!system-decoration: {{(s1,s2,s3,s4)}{{(s5,s6)}{(s7,s8)}}}
!!!system-decoration-mod: [(s1,s2,s3,s4)]{(s5,s6)}{(s7,s8)}
!!!RDF**kern: < = below
!!!RDF**kern: > = above
!!!filter-modern: humtr -p | sic -sq | shed -e "s/LO:DY:(a|b|rj)/LO:dy:$1/L" | shed -e "s/TX(.*):t=P:/tx$1:t=P:/LG" | modori -m | autostem -r | shed -e "s/yy//" | shed -k -e "s/\(y([^y])/($1/" | shed -e "s/^(\d+[\/\\]right)/$1yy/I; s/^(\d+[\/\\]left)/$1yy/I" | shed -k -e "s/[<>]//g" | shed -k -e "s/r[a-gA-G]+/r/D" | shed -e "s/^(X?)rep$/$1REP/I"
!!!ENC: Mateusz Solarz
!!!END: 2021-05-07
!!!ENC: Marta Chmielewska
!!!END: 2021-06-02
!!!EED-modern: Antoni Szymański
!!!END-modern: 2022-08-22
